!!!!SEGMENT: pl-cz--iii-346_kobierkowicz-jozef--musae-piae-silentium-garrit.krn
!!!cenid: 17xx:921
!!!COM: Kobierkowicz, Józef
!!!COM-rismID: pe30017725
!!!CDT: <1721->=1735
!!!CNT: Polish
!!!OTL: Musae piae silentium garrit
!!!PDT:
!!!AGN: Sacred
!!!SMS-siglum: PL-CZ
!!!SMS-shelfmark: III-346
!!!SMS-shelfwork: W
!!!SMS-variant:
!!!SMS-altvar:
!!!NIFC-rismSourceID: 300237562
!!!NIFC-islandoraID: pl-cz:37760
!!!URL-pdf-islandora: https://repozytorium.nifc.pl/islandora/object/pl-cz%3A37760/datastream/PDF/view
!!!URL-scan:
!!!ONB-nifc:
!!!AIN: 1 alto 1 bass 1 cbass 2 clrno 1 organ 1 soprn 1 tenor 2 violn
!!!key: C
**kern	**fba	**kern	**kern	**dynam	**kern	**dynam	**kern	**text	**kern	**text	**kern	**text	**kern	**text	**kern	**dynam	**kern	**dynam
*	*	*group3	*group3	*	*group3	*	*group2	*	*group2	*	*group2	*	*group2	*	*group1	*	*group1	*
*part10	*part10	*part9	*part8	*part8	*part7	*part7	*part6	*part6	*part5	*part5	*part4	*part4	*part3	*part3	*part2	*part2	*part1	*part1
*staff10	*	*staff9	*staff8	*	*staff7	*	*staff6	*staff6	*staff5	*staff5	*staff4	*staff4	*staff3	*staff3	*staff2	*	*staff1	*
*I"[Organo]	*	*I"Baſso	*I"Viol: 2do:	*	*I"Violino 1mo	*	*I"Baſso.	*	*I"Tenore	*	*I"Alto.	*	*I"Canto	*	*I"Clarino 2do	*	*I"Clar: 1mo	*
*I'org	*	*I'cb	*I'vl 2	*	*I'vl 1	*	*I'B	*	*I'T	*	*I'A	*	*I'S	*	*I'clno 2	*	*I'clno 1	*
*Iorgan	*	*Icbass	*Ivioln	*	*Ivioln	*	*Ibass	*	*Itenor	*	*Ialto	*	*Isoprn	*	*Iclrno	*	*Iclrno	*
*ICklav	*	*ICstr	*ICstr	*	*ICstr	*	*ICvox	*	*ICvox	*	*ICvox	*	*ICvox	*	*ICbras	*	*ICbras	*
*IGcont	*	*	*	*	*	*	*	*	*	*	*	*	*	*	*	*	*	*
*clefF4	*	*clefF4	*clefG2	*	*clefG2	*	*clefF4	*	*clefC4	*	*clefC3	*	*clefC1	*	*clefG2	*	*clefG2	*
*	*	*Trd0c0	*	*	*	*	*	*	*	*	*	*	*	*	*	*	*	*
*k[]	*	*k[]	*k[]	*	*k[]	*	*k[]	*	*k[]	*	*k[]	*	*k[]	*	*k[]	*	*k[]	*
*C:	*	*C:	*C:	*	*C:	*	*C:	*	*C:	*	*C:	*	*C:	*	*C:	*	*C:	*
*M6/4	*	*M6/4	*M6/4	*	*M6/4	*	*M6/4	*	*M6/4	*	*M6/4	*	*M6/4	*	*M6/4	*	*M6/4	*
=1	=1	=1	=1	=1	=1	=1	=1	=1	=1	=1	=1	=1	=1	=1	=1	=1	=1	=1
!	!	!	!	!	!	!	!	!	!	!	!	!	!	!	!LO:TX:a:t=Ex C	!	!LO:TX:a:t=Ex C	!
!LO:TX:a:i:rj:t=Largo	!	!LO:TX:a:i:rj:t=Largo	!LO:TX:a:i:rj:t=Largo	!	!LO:TX:a:i:rj:t=Largo.	!	!LO:TX:a:i:rj:t=Largo	!	!LO:TX:a:i:rj:t=Largo	!	!LO:TX:a:i:rj:t=Largo	!	!LO:TX:a:i:rj:t=Largo	!	!LO:TX:a:i:rj:t=Largo	!	!LO:TX:a:i:rj:t=Largo	!
4r	.	4r	4r	.	4r	.	00.r	.	00.r	.	00.r	.	00.r	.	4r	.	4r	.
4c|\	.	4c\	4cc\	.	4cc\	.	.	.	.	.	.	.	.	.	4cc\	.	4cc\	.
4G|\	.	4G\	4g/	.	4g/	.	.	.	.	.	.	.	.	.	4g/	.	4g/	.
4E|\	.	4E\	4e/	.	4e/	.	.	.	.	.	.	.	.	.	4e/	.	4e/	.
4C|/	.	4C/	4c/	.	4c/	.	.	.	.	.	.	.	.	.	4c/	.	4c/	.
4r	.	4r	4r	.	4r	.	.	.	.	.	.	.	.	.	4r	.	4r	.
=2	=2	=2	=2	=2	=2	=2	=2	=2	=2	=2	=2	=2	=2	=2	=2	=2	=2	=2
!	!	!	!	!	!	!	!	!	!	!	!	!	!	!	!LO:TX:a:t=1	!	!LO:TX:a:t=1	!
2C/	.	2C/	8ee\	.	8gg\	.	.	.	.	.	.	.	.	.	1.r	.	1.r	.
.	.	.	4cc\	.	4ee\	.	.	.	.	.	.	.	.	.	.	.	.	.
.	.	.	4ff\	.	4aa\	.	.	.	.	.	.	.	.	.	.	.	.	.
4r	.	4r	.	.	.	.	.	.	.	.	.	.	.	.	.	.	.	.
.	.	.	8ee\	.	8gg\	.	.	.	.	.	.	.	.	.	.	.	.	.
4BB/	5	4BB/	4dd\	.	4ff\	.	.	.	.	.	.	.	.	.	.	.	.	.
4C/	.	4C/	4cc\	.	4ee\	.	.	.	.	.	.	.	.	.	.	.	.	.
4r	.	4r	4r	.	4r	.	.	.	.	.	.	.	.	.	.	.	.	.
=3	=3	=3	=3	=3	=3	=3	=3	=3	=3	=3	=3	=3	=3	=3	=3	=3	=3	=3
*2\right	*	*2\right	*	*	*	*	*	*	*	*	*	*	*	*	*	*	*	*
!	!	!	!	!LO:DY:a	!	!LO:DY:a	!	!	!	!	!	!	!	!	!	!	!	!
2c\	.	2c\	8e/	p	8g/	p	.	.	.	.	.	.	.	.	8ee\	.	8gg\	.
.	.	.	4c/	.	4e/	.	.	.	.	.	.	.	.	.	4cc\	.	4ee\	.
.	.	.	4f/	.	4a/	.	.	.	.	.	.	.	.	.	4ff\	.	4aa\	.
4r	.	4r	.	.	.	.	.	.	.	.	.	.	.	.	.	.	.	.
.	.	.	8e/	.	8g/	.	.	.	.	.	.	.	.	.	8ee\	.	8gg\	.
4B\	5	4B\	4d/	.	4f/	.	.	.	.	.	.	.	.	.	4dd\	.	4ff\	.
4c\	.	4c\	4c/	.	4e/	.	.	.	.	.	.	.	.	.	4cc\	.	4ee\	.
4r	.	4r	4r	.	4r	.	.	.	.	.	.	.	.	.	4r	.	4r	.
=4	=4	=4	=4	=4	=4	=4	=4	=4	=4	=4	=4	=4	=4	=4	=4	=4	=4	=4
!	!	!	!	!LO:DY:b	!	!LO:DY:b	!	!	!	!	!	!	!	!	!	!	!	!
2GG/	.	2GG/	8g/L	f	8b\L	f	.	.	.	.	.	.	.	.	0.r	.	0.r	.
.	.	.	8a/	.	8cc\	.	.	.	.	.	.	.	.	.	.	.	.	.
.	.	.	8b/	.	8dd\	.	.	.	.	.	.	.	.	.	.	.	.	.
.	.	.	8g/J	.	8b\J	.	.	.	.	.	.	.	.	.	.	.	.	.
4r	.	4r	4cc\	.	4ee\	.	.	.	.	.	.	.	.	.	.	.	.	.
2GG/	6 4	2GG/	8cc\	.	8ee\	.	.	.	.	.	.	.	.	.	.	.	.	.
.	5 3	.	4b/	.	4dd\	.	.	.	.	.	.	.	.	.	.	.	.	.
.	.	.	4a/	.	4cc\	.	.	.	.	.	.	.	.	.	.	.	.	.
4r	.	4r	.	.	.	.	.	.	.	.	.	.	.	.	.	.	.	.
.	.	.	8g/	.	8b\	.	.	.	.	.	.	.	.	.	.	.	.	.
=5	=5	=5	=5	=5	=5	=5	=5	=5	=5	=5	=5	=5	=5	=5	=5	=5	=5	=5
!	!	!	!	!LO:DY:a	!	!LO:DY:a	!	!	!	!	!	!	!	!	!	!	!	!
2G\	.	2G\	8G/L	p	8B/L	p	00.r	.	00.r	.	00.r	.	00.r	.	.	.	.	.
.	.	.	8A/	.	8c/	.	.	.	.	.	.	.	.	.	.	.	.	.
.	.	.	8B/	.	8d/	.	.	.	.	.	.	.	.	.	.	.	.	.
.	.	.	8G/J	.	8B/J	.	.	.	.	.	.	.	.	.	.	.	.	.
4r	.	4r	4c/	.	4e/	.	.	.	.	.	.	.	.	.	.	.	.	.
2G\	6 4	2G\	8c/	.	8e/	.	.	.	.	.	.	.	.	.	.	.	.	.
.	5 3	.	4B/	.	4d/	.	.	.	.	.	.	.	.	.	.	.	.	.
.	.	.	4A/	.	4c/	.	.	.	.	.	.	.	.	.	.	.	.	.
4r	.	4r	.	.	.	.	.	.	.	.	.	.	.	.	.	.	.	.
.	.	.	8G/	.	8B/	.	.	.	.	.	.	.	.	.	.	.	.	.
=6	=6	=6	=6	=6	=6	=6	=6	=6	=6	=6	=6	=6	=6	=6	=6	=6	=6	=6
!	!	!	!	!LO:DY:b	!	!LO:DY:b	!	!	!	!	!	!	!	!	!	!	!	!
2C/	.	2C/	8cc\L	f	8ee\L	f	.	.	.	.	.	.	.	.	1.r	.	1.r	.
.	.	.	8dd\	.	8ff\	.	.	.	.	.	.	.	.	.	.	.	.	.
.	.	.	8ee\	.	8gg\	.	.	.	.	.	.	.	.	.	.	.	.	.
.	.	.	8cc\J	.	8ee\J	.	.	.	.	.	.	.	.	.	.	.	.	.
4r	.	4r	4ff\	.	4aa\	.	.	.	.	.	.	.	.	.	.	.	.	.
2C/	6 4	2C/	8ff\	.	8aa\	.	.	.	.	.	.	.	.	.	.	.	.	.
.	5 3	.	4ee\	.	4gg\	.	.	.	.	.	.	.	.	.	.	.	.	.
.	.	.	4dd\	.	4ff\	.	.	.	.	.	.	.	.	.	.	.	.	.
4r	.	4r	.	.	.	.	.	.	.	.	.	.	.	.	.	.	.	.
.	.	.	8cc\	.	8ee\	.	.	.	.	.	.	.	.	.	.	.	.	.
=7	=7	=7	=7	=7	=7	=7	=7	=7	=7	=7	=7	=7	=7	=7	=7	=7	=7	=7
!	!	!	!	!LO:DY:a	!	!LO:DY:a	!	!	!	!	!	!	!	!	!	!	!	!
2c\	.	2c\	8c/L	p	8e/L	p	.	.	.	.	.	.	.	.	8cc\L	.	8ee\L	.
.	.	.	8d/	.	8f/	.	.	.	.	.	.	.	.	.	8dd\	.	8ff\	.
.	.	.	8e/	.	8g/	.	.	.	.	.	.	.	.	.	8ee\	.	8gg\	.
.	.	.	8c/J	.	8e/J	.	.	.	.	.	.	.	.	.	8cc\J	.	8ee\J	.
4r	.	4r	4f/	.	4a/	.	.	.	.	.	.	.	.	.	4ff\	.	4aa\	.
2c\	6 4	2c\	8f/	.	8a/	.	.	.	.	.	.	.	.	.	8ff\	.	8aa\	.
.	5 3	.	4e/	.	4g/	.	.	.	.	.	.	.	.	.	4ee\	.	4gg\	.
.	.	.	4d/	.	4f/	.	.	.	.	.	.	.	.	.	4dd\	.	4ff\	.
4r	.	4r	.	.	.	.	.	.	.	.	.	.	.	.	.	.	.	.
.	.	.	8c/	.	8e/	.	.	.	.	.	.	.	.	.	8cc\	.	8ee\	.
=8	=8	=8	=8	=8	=8	=8	=8	=8	=8	=8	=8	=8	=8	=8	=8	=8	=8	=8
!	!	!	!LO:N:vis=2	!	!	!LO:DY:a	!	!	!	!	!	!	!	!	!LO:TX:a:t=2	!	!LO:TX:a:t=2	!
2E\	6	2E\	2.r	.	8r	f	.	.	.	.	.	.	.	.	0.r	.	0.r	.
.	.	.	.	.	8g\L	.	.	.	.	.	.	.	.	.	.	.	.	.
.	.	.	.	.	8cc\	.	.	.	.	.	.	.	.	.	.	.	.	.
.	.	.	.	.	8ee\	.	.	.	.	.	.	.	.	.	.	.	.	.
4r	.	4r	.	.	8cc\	.	.	.	.	.	.	.	.	.	.	.	.	.
.	.	.	.	.	8g\J	.	.	.	.	.	.	.	.	.	.	.	.	.
!	!	!	!	!LO:DY:b	!	!	!	!	!	!	!	!	!	!	!	!	!	!
2F\	.	2F\	8r	f	2a/	.	.	.	.	.	.	.	.	.	.	.	.	.
.	.	.	8cc\L	.	.	.	.	.	.	.	.	.	.	.	.	.	.	.
.	.	.	8ff\	.	.	.	.	.	.	.	.	.	.	.	.	.	.	.
.	.	.	8aa\	.	.	.	.	.	.	.	.	.	.	.	.	.	.	.
4r	.	4r	8ff\	.	4r	.	.	.	.	.	.	.	.	.	.	.	.	.
.	.	.	8cc\J	.	.	.	.	.	.	.	.	.	.	.	.	.	.	.
*	*	*	*	*	*custos:a	*	*	*	*	*	*	*	*	*	*	*	*	*
!	!	!	!	!	!LO:LB:g=original	!	!	!	!	!	!	!	!	!	!	!	!	!
=9	=9	=9	=9	=9	=9	=9	=9	=9	=9	=9	=9	=9	=9	=9	=9	=9	=9	=9
*	*	*	*2\right	*	*	*	*	*	*	*	*	*	*	*	*	*	*	*
2D\	.	2D\	2dd\	.	8r	.	00.r	.	00.r	.	00.r	.	00.r	.	.	.	.	.
.	.	.	.	.	8a\L	.	.	.	.	.	.	.	.	.	.	.	.	.
.	.	.	.	.	8dd\	.	.	.	.	.	.	.	.	.	.	.	.	.
.	.	.	.	.	8ff\	.	.	.	.	.	.	.	.	.	.	.	.	.
4r	.	4r	4r	.	8dd\	.	.	.	.	.	.	.	.	.	.	.	.	.
.	.	.	.	.	8a\J	.	.	.	.	.	.	.	.	.	.	.	.	.
2G\	.	2G\	8r	.	2b/	.	.	.	.	.	.	.	.	.	.	.	.	.
.	.	.	8dd\L	.	.	.	.	.	.	.	.	.	.	.	.	.	.	.
.	.	.	8gg\	.	.	.	.	.	.	.	.	.	.	.	.	.	.	.
.	.	.	8bb\	.	.	.	.	.	.	.	.	.	.	.	.	.	.	.
4r	.	4r	8gg\	.	4r	.	.	.	.	.	.	.	.	.	.	.	.	.
.	.	.	8dd\J	.	.	.	.	.	.	.	.	.	.	.	.	.	.	.
!	!	!	!LO:LB:g=original	!	!	!	!	!	!	!	!	!	!	!	!	!	!	!
=10	=10	=10	=10	=10	=10	=10	=10	=10	=10	=10	=10	=10	=10	=10	=10	=10	=10	=10
2.C/	5	2.C/	4ee\	.	4ee\	.	.	.	.	.	.	.	.	.	4.ee\	.	8gg\L	.
.	.	.	.	.	.	.	.	.	.	.	.	.	.	.	.	.	8ff\	.
.	.	.	4cc\	.	4gg\	.	.	.	.	.	.	.	.	.	.	.	8ee\	.
.	.	.	.	.	.	.	.	.	.	.	.	.	.	.	8ff\	.	8dd\	.
.	6	.	4.aa\	.	16aa\LL	.	.	.	.	.	.	.	.	.	4ee\	.	8ee\	.
.	.	.	.	.	16gg\	.	.	.	.	.	.	.	.	.	.	.	.	.
.	.	.	.	.	16ff\	.	.	.	.	.	.	.	.	.	.	.	8aa\J	.
.	.	.	.	.	16ee\JJ	.	.	.	.	.	.	.	.	.	.	.	.	.
2.D\	5	2.D\	.	.	4ff\	.	.	.	.	.	.	.	.	.	4.ff\	.	8ff\L	.
.	.	.	8ff\	.	.	.	.	.	.	.	.	.	.	.	.	.	8ee\	.
.	.	.	4dd\	.	4aa\	.	.	.	.	.	.	.	.	.	.	.	8dd\	.
.	.	.	.	.	.	.	.	.	.	.	.	.	.	.	8gg\	.	8ee\	.
.	6	.	[4bb\	.	16bb\LL	.	.	.	.	.	.	.	.	.	4ff\	.	8ff\	.
.	.	.	.	.	16aa\	.	.	.	.	.	.	.	.	.	.	.	.	.
.	.	.	.	.	16gg\	.	.	.	.	.	.	.	.	.	.	.	8bb\J	.
.	.	.	.	.	16ff\JJ	.	.	.	.	.	.	.	.	.	.	.	.	.
=11	=11	=11	=11	=11	=11	=11	=11	=11	=11	=11	=11	=11	=11	=11	=11	=11	=11	=11
2.E\	5	2.E\	8bb\L]	.	4gg\	.	.	.	.	.	.	.	.	.	4.gg\	.	8gg\L	.
.	.	.	8gg\J	.	.	.	.	.	.	.	.	.	.	.	.	.	8ff\	.
.	.	.	4ee\	.	4bb\	.	.	.	.	.	.	.	.	.	.	.	8ee\	.
.	.	.	.	.	.	.	.	.	.	.	.	.	.	.	8aa\	.	8ff\	.
.	6	.	4ccc\	.	16ccc\LL	.	.	.	.	.	.	.	.	.	4gg\	.	8gg\	.
.	.	.	.	.	16bb\	.	.	.	.	.	.	.	.	.	.	.	.	.
.	.	.	.	.	16aa\	.	.	.	.	.	.	.	.	.	.	.	8ccc\J	.
.	.	.	.	.	16gg\JJ	.	.	.	.	.	.	.	.	.	.	.	.	.
!LO:LB:g=original	!	!	!LO:N:xstem	!	!	!	!	!	!	!	!	!	!	!	!	!	!	!
2.F\	5	2.F\	8ccc\	.	4aa\	.	.	.	.	.	.	.	.	.	4.aa\	.	8aa\L	.
.	.	.	8aa\	.	.	.	.	.	.	.	.	.	.	.	.	.	8gg\	.
.	.	.	4ff\	.	4ccc\	.	.	.	.	.	.	.	.	.	.	.	8ff\	.
.	.	.	.	.	.	.	.	.	.	.	.	.	.	.	8bb\	.	8gg\	.
.	6	.	4ddd\	.	16ddd\LL	.	.	.	.	.	.	.	.	.	4aa\	.	8aa\	.
.	.	.	.	.	16ccc\	.	.	.	.	.	.	.	.	.	.	.	.	.
.	.	.	.	.	16bb\	.	.	.	.	.	.	.	.	.	.	.	8ddd\J	.
.	.	.	.	.	16aa\JJ	.	.	.	.	.	.	.	.	.	.	.	.	.
=12	=12	=12	=12	=12	=12	=12	=12	=12	=12	=12	=12	=12	=12	=12	=12	=12	=12	=12
4G\	7	4G\	4b/	.	4ff\	.	.	.	.	.	.	.	.	.	4dd\	.	4ff\	.
4G\	.	4G\	4b/	.	4ff\	.	.	.	.	.	.	.	.	.	4dd\	.	4ff\	.
4G\	.	4G\	4b/	.	4ff\	.	.	.	.	.	.	.	.	.	4dd\	.	4ff\	.
!LO:N:vis=2	!	!LO:N:vis=2	!	!	!	!	!	!	!	!	!	!	!	!	!	!	!	!
2.r	.	2.r	8e/	.	8g/	.	.	.	.	.	.	.	.	.	8ee\	.	8gg\	.
.	.	.	4d/	.	4f/	.	.	.	.	.	.	.	.	.	4dd\	.	4ff\	.
.	.	.	4c/	.	4e/	.	.	.	.	.	.	.	.	.	4cc\	.	4ee\	.
.	.	.	8B/	.	8d/	.	.	.	.	.	.	.	.	.	8g/	.	8dd\	.
!	!	!	!	!	!	!	!	!	!	!	!	!	!	!	!	!	!LO:LB:g=original	!
=13	=13	=13	=13	=13	=13	=13	=13	=13	=13	=13	=13	=13	=13	=13	=13	=13	=13	=13
!	!	!	!	!LO:DY:b	!	!LO:DY:b	!	!	!	!	!	!	!	!	!	!	!	!
4G\	7	4G\	4b\	p	4ff\	p	0.r	.	0.r	.	0.r	.	0.r	.	4dd\	p	4ff\	p
4G\	.	4G\	4b\	.	4ff\	.	.	.	.	.	.	.	.	.	4dd\	.	4ff\	.
4G\	.	4G\	4b\	.	4ff\	.	.	.	.	.	.	.	.	.	4dd\	.	4ff\	.
*	*	*	*	*	*	*	*	*	*	*	*	*	*	*	*custos:ee	*	*	*
!LO:N:vis=2	!	!LO:N:vis=2	!	!	!	!	!	!	!	!	!	!	!	!	!LO:LB:g=original	!	!	!
2.r	.	2.r	8ee\	.	8gg\	.	.	.	.	.	.	.	.	.	8ee\	.	8gg\	.
.	.	.	4dd\	.	4ff\	.	.	.	.	.	.	.	.	.	4dd\	.	4ff\	.
.	.	.	4cc\	.	4ee\	.	.	.	.	.	.	.	.	.	4cc\	.	4ee\	.
.	.	.	8b\	.	8dd\	.	.	.	.	.	.	.	.	.	8g/	.	8dd\	.
*	*	*custos:C	*	*	*	*	*	*	*	*	*	*	*	*	*	*	*	*
!	!	!LO:LB:g=original	!	!	!	!	!	!	!	!	!	!	!	!	!	!	!	!
=14	=14	=14	=14	=14	=14	=14	=14	=14	=14	=14	=14	=14	=14	=14	=14	=14	=14	=14
!	!	!	!	!LO:DY:b	!	!LO:DY:b	!	!	!	!	!	!	!	!	!	!	!	!
2C/	.	2C/	8ee\	f	8gg\	f	.	.	.	.	.	.	.	.	8ee\	f	8gg\	f
.	.	.	4cc\	.	4ee\	.	.	.	.	.	.	.	.	.	4cc\	.	4ee\	.
.	.	.	4ff\	.	4aa\	.	.	.	.	.	.	.	.	.	4ff\	.	4aa\	.
4r	.	4r	.	.	.	.	.	.	.	.	.	.	.	.	.	.	.	.
.	.	.	8ee\	.	8gg\	.	.	.	.	.	.	.	.	.	8ee\	.	8gg\	.
4BB/	5	4BB/	4dd\	.	4ff\	.	.	.	.	.	.	.	.	.	4dd\	.	4ff\	.
4C/	.	4C/	4cc\	.	4ee\	.	.	.	.	.	.	.	.	.	4cc\	.	4ee\	.
4r	.	4r	4r	.	4r	.	.	.	.	.	.	.	.	.	4r	.	4r	.
=15	=15	=15	=15	=15	=15	=15	=15	=15	=15	=15	=15	=15	=15	=15	=15	=15	=15	=15
!	!	!	!	!LO:DY:a	!	!LO:DY:a	!	!	!	!	!	!	!	!	!	!	!	!
2c\	.	2c\	8e/	p	8g/	p	1.r	.	1.r	.	1.r	.	1.r	.	8ee\	p	8gg\	p
.	.	.	4c/	.	4e/	.	.	.	.	.	.	.	.	.	4cc\	.	4ee\	.
.	.	.	4f/	.	4a/	.	.	.	.	.	.	.	.	.	4ff\	.	4aa\	.
4r	.	4r	.	.	.	.	.	.	.	.	.	.	.	.	.	.	.	.
.	.	.	8e/	.	8g/	.	.	.	.	.	.	.	.	.	8ee\	.	8gg\	.
4B\	5	4B\	4d/	.	4f/	.	.	.	.	.	.	.	.	.	4dd\	.	4ff\	.
4c\	.	4c\	4c/	.	4e/	.	.	.	.	.	.	.	.	.	4cc\	.	4ee\	.
4r	.	4r	4r	.	4r	.	.	.	.	.	.	.	.	.	4r	.	4r	.
=16	=16	=16	=16	=16	=16	=16	=16	=16	=16	=16	=16	=16	=16	=16	=16	=16	=16	=16
!LO:TX:b:i:t=Tutti	!	!	!	!	!	!LO:DY:b	!	!	!	!	!	!	!	!	!	!LO:DY:a	!	!
4r	.	4r	4r	.	4r	f	4r	.	4r	.	4r	.	4r	.	4r	f	4r	f
!	!	!	!	!	!	!	!LO:TX:b:i:t=Tutti	!	!LO:TX:a:i:t=Tutti	!	!	!	!LO:TX:a:i:t=Tutti	!	!	!	!	!
4c|\	.	4c\	4cc\	f	4ccc\	.	4c\	Mu-	4c\	Mu-	4cc\	Mu-	4cc\	Mu-	4cc\	.	4ccc\	.
4G|\	.	4G\	4g/	.	4gg\	.	4G\	-sae	4G/	-sae	4g\	-sae	4g/	-sae	4g/	.	4gg\	.
!	!	!	!	!	!LO:TX:t=P:problem=mixed beam	!	!	!	!	!	!	!	!	!	!	!	!	!
8E|\L	.	8E\L	8e/L	.	8ee\L	.	8E\	pi-	8E/	pi-	8e\	pi-	8e/	pi-	8e/L	.	8ee\L	.
8C|\J	.	8C\J	8c/	.	8cc\	.	8C/	-ae	8C/	-ae	8c/	-ae	8c/	-ae	8c/	.	8cc\J	.
4r	.	4r	8e/	.	8e/	.	4r	.	4r	.	4r	.	4r	.	8e/	.	8e/L	.
.	.	.	8c/J	.	8c/J	.	.	.	.	.	.	.	.	.	8c/J	.	8c/J	.
!	!	!	!	!	!	!	!LO:TX:b:i::t=solo	!	!	!	!	!	!	!	!	!	!	!
4r	.	4r	4r	.	4r	.	4c\	Si-	4r	.	4r	.	4r	.	4r	.	4r	.
=17	=17	=17	=17	=17	=17	=17	=17	=17	=17	=17	=17	=17	=17	=17	=17	=17	=17	=17
!LO:N:vis=2	!	!LO:N:vis=2	!LO:N:vis=2	!	!LO:N:vis=2	!	!	!	!LO:TX:a:t=2	!	!LO:TX:a:t=2	!	!LO:TX:a:t=2	!	!LO:N:vis=2	!	!LO:N:vis=2	!
2.r	.	2.r	2.r	.	2.r	.	4.c\	-len-	0.r	.	0.r	.	0.r	.	2.r	.	2.r	.
.	.	.	.	.	.	.	8C/	-ti-	.	.	.	.	.	.	.	.	.	.
.	.	.	.	.	.	.	4C/	-um	.	.	.	.	.	.	.	.	.	.
!LO:TX:b:i:t=Solo	!	!	!	!LO:DY:b	!	!LO:DY:b	!LO:N:vis=2	!	!	!	!	!	!	!	!	!	!	!
2C/	.	2C/	8ee\	p	8gg\	p	2.r	.	.	.	.	.	.	.	8ee\	.	8gg\	p
.	.	.	4cc\	.	4ee\	.	.	.	.	.	.	.	.	.	4cc\	.	4ee\	.
.	.	.	4ff\	.	4aa\	.	.	.	.	.	.	.	.	.	4ff\	.	4aa\	.
4r	.	4r	.	.	.	.	.	.	.	.	.	.	.	.	.	.	.	.
.	.	.	8ee\	.	8gg\	.	.	.	.	.	.	.	.	.	8ee\	.	8gg\	.
*	*	*	*	*	*custos:ff	*	*	*	*	*	*	*	*	*	*	*	*	*
!	!	!	!	!	!LO:LB:g=original	!	!	!	!	!	!	!	!	!	!	!	!	!
=18	=18	=18	=18	=18	=18	=18	=18	=18	=18	=18	=18	=18	=18	=18	=18	=18	=18	=18
!	!	!	!	!	!	!	!LO:TX:a:t=1	!	!	!	!	!	!	!	!	!	!	!
4BB/	5	4BB/	4dd\	.	4ff\	.	1.r	.	.	.	.	.	.	.	4dd\	.	4ff\	.
4C/	.	4C/	4cc\	.	4ee\	.	.	.	.	.	.	.	.	.	4cc\	.	4ee\	.
4r	.	4r	4r	.	4r	.	.	.	.	.	.	.	.	.	4r	.	4r	.
2c\	.	2c\	8e/	.	8g/	.	.	.	.	.	.	.	.	.	8ee\	.	8gg\	.
.	.	.	4c/	.	4e/	.	.	.	.	.	.	.	.	.	4cc\	.	4ee\	.
.	.	.	4f/	.	4a/	.	.	.	.	.	.	.	.	.	4ff\	.	4aa\	.
4r	.	4r	.	.	.	.	.	.	.	.	.	.	.	.	.	.	.	.
.	.	.	8e/	.	8g/	.	.	.	.	.	.	.	.	.	8ee\	.	8gg\	.
=19	=19	=19	=19	=19	=19	=19	=19	=19	=19	=19	=19	=19	=19	=19	=19	=19	=19	=19
!	!	!	!	!LO:DY:a	!	!	!	!	!	!	!	!	!	!	!	!	!	!
4B\	5	4B\	4d/	f	4f/	.	4r	.	4r	.	4r	.	4r	.	4dd\	.	4ff\	f
!LO:TX:b:i:t=Tutti	!	!	!	!	!	!LO:DY:b	!LO:TX:b:i:t=Tutti	!	!	!	!	!	!	!	!	!	!	!
4c|\	.	4c\	4c/	.	4e/	f	4c\	Mu-	4c\	Mu-	4cc\	Mu-	4cc\	Mu-	4cc\	.	4ee\	.
4G|\	.	4G\	4g/	.	4gg\	.	4G\	-sae	4G/	-sae	4g\	-sae	4g/	-sae	4g/	.	4gg\	.
!	!	!	!	!	!LO:TX:t=P:problem=mixed beam	!	!	!	!	!	!	!	!	!	!	!	!	!
8E|\L	.	8E\L	8e/L	.	8ee\L	.	8E\	pi-	8E/	pi-	8e\	pi-	8e/	pi-	8e/L	.	8ee\L	.
8C|\J	.	8C\J	8c/	.	8cc\	.	8C/	-ae	8C/	-ae	8c/	-ae	8c/	-ae	8c/J	.	8cc\J	.
4r	.	4r	8e/	.	8e/	.	4r	.	4r	.	4r	.	4r	.	8e/L	.	8e/L	.
.	.	.	8c/J	.	8c/J	.	.	.	.	.	.	.	.	.	8c/J	.	8c/J	.
!	!	!	!	!	!	!	!LO:TX:b:i:t=solo	!	!	!	!	!	!	!	!	!	!	!
4r	.	4r	4r	.	4r	.	4c\	Si-	4r	.	4r	.	4r	.	4r	.	4r	.
=20	=20	=20	=20	=20	=20	=20	=20	=20	=20	=20	=20	=20	=20	=20	=20	=20	=20	=20
!LO:N:vis=2	!	!LO:N:vis=2	!LO:N:vis=2	!	!LO:N:vis=2	!LO:DY:b	!	!	!LO:TX:a:t=1	!	!LO:TX:a:t=1	!	!LO:TX:a:t=2	!	!LO:N:vis=2	!	!LO:N:vis=2	!
2.r	.	2.r	2.r	.	2.r	p	4.c\	-len-	1.r	.	1.r	.	0.r	.	2.r	.	2.r	.
.	.	.	.	.	.	.	8C/	-ti-	.	.	.	.	.	.	.	.	.	.
.	.	.	.	.	.	.	4C/	-um	.	.	.	.	.	.	.	p	.	.
*	*	*	*custos:f	*	*	*	*	*	*	*	*	*	*	*	*	*	*	*
!LO:TX:b:i:t=Solo	!	!	!LO:LB:g=original	!LO:DY:a	!	!	!LO:N:vis=2	!	!	!	!	!	!	!	!	!	!	!
2C/	6 4	2C/	8f/	p	8a/	.	2.r	.	.	.	.	.	.	.	8ff\	.	8aa\	p
.	5 3	.	4e/	.	4g/	.	.	.	.	.	.	.	.	.	4ee\	.	4gg\	.
.	.	.	4d/	.	4f/	.	.	.	.	.	.	.	.	.	4dd\	.	4ff\	.
4r	.	4r	.	.	.	.	.	.	.	.	.	.	.	.	.	.	.	.
.	.	.	8c/	.	8e/	.	.	.	.	.	.	.	.	.	8cc\	.	8ee\	.
=21	=21	=21	=21	=21	=21	=21	=21	=21	=21	=21	=21	=21	=21	=21	=21	=21	=21	=21
!LO:TX:b:i:t=alt. Ten&colon;	!	!	!LO:TX:a:t=2	!	!LO:TX:a:t=2	!	!LO:TX:a:t=1	!	!LO:TX:a:t=az	!	!	!	!	!	!	!	!	!
2C/	.	2C/	0.r	.	0.r	.	1.r	.	8c\	Mu-	8e\	Mu-	.	.	00.r	.	00.r	.
.	.	.	.	.	.	.	.	.	8d\	-sae	8f\	-sae	.	.	.	.	.	.
.	.	.	.	.	.	.	.	.	8e\L	pi-	8g\L	pi-	.	.	.	.	.	.
.	.	.	.	.	.	.	.	.	8c\J	.	8e\J	.	.	.	.	.	.	.
4r	.	4r	.	.	.	.	.	.	8f\	-ae	8a\	-ae	.	.	.	.	.	.
.	.	.	.	.	.	.	.	.	8d\	si-	8f\	si-	.	.	.	.	.	.
2C/	.	2C/	.	.	.	.	.	.	8e\L	-len-	8g\L	-len-	.	.	.	.	.	.
.	.	.	.	.	.	.	.	.	8d\	.	8f\	.	.	.	.	.	.	.
.	.	.	.	.	.	.	.	.	8e\J	.	8g\J	.	.	.	.	.	.	.
.	.	.	.	.	.	.	.	.	8d\	-ti-	8f\	-ti-	.	.	.	.	.	.
4r	.	4r	.	.	.	.	.	.	4c\	-um	4e\	-um	.	.	.	.	.	.
=22	=22	=22	=22	=22	=22	=22	=22	=22	=22	=22	=22	=22	=22	=22	=22	=22	=22	=22
!LO:TX:b:i:t=cant. Baſs.	!	!	!	!	!	!	!LO:TX:a:t=az	!	!LO:TX:a:t=3.	!	!LO:N:vis=2	!	!LO:TX:a:t=az	!	!	!	!	!
2C/	.	2C/	.	.	.	.	8C/	Mu-	0.r	.	2.r	.	8e/	Gar-	.	.	.	.
.	.	.	.	.	.	.	8D/	-sae	.	.	.	.	8f/	-rit	.	.	.	.
.	.	.	.	.	.	.	8E\L	pi-	.	.	.	.	8g/L	Pu-	.	.	.	.
.	.	.	.	.	.	.	8C\J	.	.	.	.	.	8e/J	.	.	.	.	.
4r	.	4r	.	.	.	.	8F\	-ae	.	.	.	.	8a\	-er	.	.	.	.
.	.	.	.	.	.	.	8D/	Si-	.	.	.	.	8f/	per	.	.	.	.
2C/	.	2C/	.	.	.	.	8E\L	-len-	.	.	4r	.	8g/L	som-	.	.	.	.
.	.	.	.	.	.	.	8D\	.	.	.	.	.	8f/	.	.	.	.	.
.	.	.	.	.	.	.	8E\J	.	.	.	4r	.	8g/J	.	.	.	.	.
.	.	.	.	.	.	.	8D/	-ti-	.	.	.	.	8f/	-ni-	.	.	.	.
4r	.	4r	.	.	.	.	4C/	-um	.	.	4g\	Si-	4e/	-um	.	.	.	.
*custos:C	*	*	*	*	*	*	*	*	*	*	*	*	*	*	*	*	*	*
!LO:LB:g=original	!	!	!	!	!	!	!	!	!	!	!	!	!	!	!	!	!	!
=23	=23	=23	=23	=23	=23	=23	=23	=23	=23	=23	=23	=23	=23	=23	=23	=23	=23	=23
!LO:N:vis=2	!	!LO:N:vis=2	!	!	!	!	!LO:TX:a:t=2	!	!	!	!	!	!LO:TX:a:t=1	!	!	!	!	!
2.r	.	2.r	4r	.	4r	.	0.r	.	.	.	4.g\	-len-	1.r	.	.	.	.	.
.	.	.	4r	.	4r	.	.	.	.	.	.	.	.	.	.	.	.	.
.	.	.	.	.	.	.	.	.	.	.	8f\	-ti-	.	.	.	.	.	.
.	.	.	8r	.	8r	.	.	.	.	.	4e\	-um	.	.	.	.	.	.
.	.	.	8c/	.	8e/	.	.	.	.	.	.	.	.	.	.	.	.	.
!	!	!	!	!	!	!	!	!	!	!	!LO:N:vis=2	!	!	!	!	!	!	!
2C/	6 4	2C/	8f/	.	8a/	.	.	.	.	.	2.r	.	.	.	.	.	.	.
.	5 3	.	4e/	.	4g/	.	.	.	.	.	.	.	.	.	.	.	.	.
.	.	.	4d/	.	4f/	.	.	.	.	.	.	.	.	.	.	.	.	.
4r	.	4r	.	.	.	.	.	.	.	.	.	.	.	.	.	.	.	.
.	.	.	8c/	.	8e/	.	.	.	.	.	.	.	.	.	.	.	.	.
!	!	!	!	!	!	!	!	!	!	!	!LO:LB:g=original	!	!	!	!	!	!	!
=24	=24	=24	=24	=24	=24	=24	=24	=24	=24	=24	=24	=24	=24	=24	=24	=24	=24	=24
!	!	!	!LO:TX:a:t=2	!	!LO:TX:a:t=2	!	!	!	!	!	!	!	!	!	!	!	!	!
2GG/	.	2GG/	0.r	.	0.r	.	.	.	1.r	.	8g\L	aus-	8b\L	aus-	.	.	.	.
.	.	.	.	.	.	.	.	.	.	.	8a\J	.	8cc\J	.	.	.	.	.
.	.	.	.	.	.	.	.	.	.	.	8b\	-cul-	8dd\	-cul-	.	.	.	.
.	.	.	.	.	.	.	.	.	.	.	8g\	-to	8b\	-to	.	.	.	.
*	*	*	*	*	*	*	*	*	*	*	*	*	*custos:ee	*	*	*	*	*
!	!	!	!	!	!	!	!	!	!	!	!	!	!LO:LB:g=original	!	!	!	!	!
4r	.	4r	.	.	.	.	.	.	.	.	8cc\	sunt	8ee\	sunt	.	.	.	.
.	.	.	.	.	.	.	.	.	.	.	8a\	prae-	8cc\	prae-	.	.	.	.
2GG/	.	2GG/	.	.	.	.	.	.	.	.	8b\L	-sa-	8dd\L	-sa-	.	.	.	.
.	.	.	.	.	.	.	.	.	.	.	8a\	.	8cc\	.	.	.	.	.
.	.	.	.	.	.	.	.	.	.	.	8b\J	.	8dd\J	.	.	.	.	.
.	.	.	.	.	.	.	.	.	.	.	8a\	-gi-	8cc\	-gi-	.	.	.	.
4r	.	4r	.	.	.	.	.	.	.	.	4g\	-a	4b\	-a	.	.	.	.
*	*	*	*	*	*	*	*custos:G	*	*	*	*	*	*	*	*	*	*	*
!	!	!	!	!	!	!	!LO:LB:g=original	!	!	!	!	!	!	!	!	!	!	!
=25	=25	=25	=25	=25	=25	=25	=25	=25	=25	=25	=25	=25	=25	=25	=25	=25	=25	=25
!	!	!	!	!	!	!	!	!	!	!	!	!	!LO:N:vis=2	!	!	!	!	!
2GG/	.	2GG/	.	.	.	.	8G\L	nos	8B\L	nos	00.r	.	2.r	.	0.r	.	0.r	.
.	.	.	.	.	.	.	8A\J	.	8c\J	.	.	.	.	.	.	.	.	.
.	.	.	.	.	.	.	8B\	ve-	8d\	ve-	.	.	.	.	.	.	.	.
.	.	.	.	.	.	.	8G\	-ra	8B\	-ra	.	.	.	.	.	.	.	.
*	*	*	*	*	*	*	*	*	*custos:e	*	*	*	*	*	*	*	*	*
!	!	!	!	!	!	!	!	!	!LO:LB:g=original	!	!	!	!	!	!	!	!	!
4r	.	4r	.	.	.	.	8c\	Chri-	8e\	Chri-	.	.	.	.	.	.	.	.
.	.	.	.	.	.	.	8A\	-sto	8c\	-sto	.	.	.	.	.	.	.	.
2GG/	.	2GG/	.	.	.	.	8B\L	Som-	8d\L	som-	.	.	4r	.	.	.	.	.
.	.	.	.	.	.	.	8A\	.	8c\	.	.	.	.	.	.	.	.	.
.	.	.	.	.	.	.	8B\J	.	8d\J	.	.	.	4r	.	.	.	.	.
.	.	.	.	.	.	.	8A\	-ni-	8c\	-ni-	.	.	.	.	.	.	.	.
4r	.	4r	.	.	.	.	4G\	-a	4B\	-a	.	.	4dd\	Si-	.	.	.	.
=26	=26	=26	=26	=26	=26-	=26	=26	=26	=26	=26	=26	=26	=26	=26	=26	=26	=26	=26
!LO:N:vis=2	!	!LO:N:vis=2	!LO:N:vis=2	!	!LO:N:vis=2	!	!LO:TX:a:t=2:color=grey	!	!LO:N:vis=2	!	!	!	!	!	!	!	!	!
2.r	.	2.r	2.r	.	2.r	.	0.r	.	2.r	.	.	.	4.dd\	-len-	.	.	.	.
.	.	.	.	.	.	.	.	.	.	.	.	.	8cc\	-ti-	.	.	.	.
.	.	.	.	.	.	.	.	.	.	.	.	.	4b\	-um	.	.	.	.
!	!	!	!	!	!	!	!	!	!	!	!	!	!LO:N:vis=2	!	!	!	!	!
2GG/	6 4	2GG/	8cc\	.	8ee\	.	.	.	4r	.	.	.	2.r	.	.	.	.	.
.	5 3	.	4b/	.	4dd\	.	.	.	.	.	.	.	.	.	.	.	.	.
.	.	.	.	.	.	.	.	.	4r	.	.	.	.	.	.	.	.	.
.	.	.	4a/	.	4cc\	.	.	.	.	.	.	.	.	.	.	.	.	.
4r	.	4r	.	.	.	.	.	.	4d\	Si-	.	.	.	.	.	.	.	.
.	.	.	8g/	.	8b\	.	.	.	.	.	.	.	.	.	.	.	.	.
!	!	!LO:LB:g=original	!	!	!	!	!	!	!	!	!	!	!	!	!	!	!	!
=27	=27	=27	=27	=27	=27	=27	=27	=27	=27	=27	=27	=27	=27	=27	=27	=27	=27	=27
!	!	!	!	!	!	!	!	!	!	!	!	!	!LO:TX:b:t=3:color=grey	!	!	!	!	!
!LO:N:vis=2	!	!LO:N:vis=2	!LO:N:vis=2	!	!LO:N:vis=2	!	!	!	!	!	!	!	!LO:TX:a:t=3:color=grey	!	!	!	!	!
2.r	.	2.r	2.r	.	2.r	.	.	.	4.d\	-len-	.	.	0.r	.	1.r	.	1.r	.
.	.	.	.	.	.	.	.	.	8c\	-ti-	.	.	.	.	.	.	.	.
.	.	.	.	.	.	.	.	.	4B\	-um	.	.	.	.	.	.	.	.
!	!	!	!	!	!	!	!	!	!LO:N:vis=2	!	!	!	!	!	!	!	!	!
2GG/	6 4	2GG/	8cc\	.	8ee\	.	.	.	2.r	.	.	.	.	.	.	.	.	.
.	5 3	.	4b/	.	4dd\	.	.	.	.	.	.	.	.	.	.	.	.	.
.	.	.	4a/	.	4cc\	.	.	.	.	.	.	.	.	.	.	.	.	.
4r	.	4r	.	.	.	.	.	.	.	.	.	.	.	.	.	.	.	.
.	.	.	8g/	.	8b\	.	.	.	.	.	.	.	.	.	.	.	.	.
=28	=28	=28	=28	=28	=28	=28	=28	=28	=28	=28	=28	=28	=28	=28	=28	=28	=28	=28
!	!	!	!	!LO:DY:b	!	!LO:DY:b	!LO:N:vis=2	!	!LO:TX:a:t=3.	!	!	!	!	!	!	!	!	!
2C/	.	2C/	8ee\	f	8gg\	f	2.r	.	0.r	.	.	.	.	.	8ee\	f	8gg\	f
.	.	.	4cc\	.	4ee\	.	.	.	.	.	.	.	.	.	4cc\	.	4ee\	.
.	.	.	4ff\	.	4aa\	.	.	.	.	.	.	.	.	.	4ff\	.	4aa\	.
4r	.	4r	.	.	.	.	.	.	.	.	.	.	.	.	.	.	.	.
.	.	.	8ee\	.	8gg\	.	.	.	.	.	.	.	.	.	8ee\	.	8gg\	.
*	*	*	*	*	*	*	*	*	*	*	*	*	*	*	*custos:dd	*	*custos:ff	*
!	!	!	!	!	!	!	!	!	!	!	!	!	!	!	!LO:LB:g=original	!	!LO:LB:g=original	!
4BB/	5	4BB/	4dd\	.	4ff\	.	4r	.	.	.	.	.	.	.	4dd\	.	4ff\	.
4C/	.	4C/	4cc\	.	4ee\	.	4r	.	.	.	.	.	.	.	4cc\	.	4ee\	.
!	!	!	!	!	!	!	!LO:TX:b:i:t=solo	!	!	!	!	!	!	!	!	!	!	!
4r	.	4r	4r	.	4r	.	4c\	Si-	.	.	.	.	.	.	4r	.	4r	.
=29	=29	=29	=29	=29	=29	=29	=29	=29	=29	=29	=29	=29	=29	=29	=29	=29	=29	=29
!LO:N:vis=2	!	!LO:N:vis=2	!LO:N:vis=2	!	!LO:N:vis=2	!	!	!	!	!	!	!	!	!	!	!	!	!
2.r	.	2.r	2.r	.	2.r	.	4.c\	-len-	.	.	0.r	.	1.r	.	00.r	.	00.r	.
.	.	.	.	.	.	.	8C/	-ti-	.	.	.	.	.	.	.	.	.	.
.	.	.	.	.	.	.	4C/	-um	.	.	.	.	.	.	.	.	.	.
!	!	!	!	!LO:DY:a	!	!LO:DY:b	!LO:N:vis=2	!	!	!	!	!	!	!	!	!	!	!
4C/	.	2C/	8e/	p	8g/	p	2.r	.	.	.	.	.	.	.	.	.	.	.
.	.	.	4c/	.	4e/	.	.	.	.	.	.	.	.	.	.	.	.	.
4r	.	.	.	.	.	.	.	.	.	.	.	.	.	.	.	.	.	.
.	.	.	4f/	.	4a/	.	.	.	.	.	.	.	.	.	.	.	.	.
4r	.	4r	.	.	.	.	.	.	.	.	.	.	.	.	.	.	.	.
.	.	.	8e/	.	8g/	.	.	.	.	.	.	.	.	.	.	.	.	.
=30	=30	=30	=30	=30	=30	=30	=30	=30	=30	=30	=30	=30	=30	=30	=30	=30	=30	=30
!	!	!	!	!	!	!	!LO:TX:a:t=2:color=grey	!	!	!	!	!	!	!	!	!	!	!
4BB/	5	4BB/	4d/	.	4f/	.	0.r	.	1.r	.	.	.	2.r	.	.	.	.	.
4C/	.	4C/	4c/	.	4e/	.	.	.	.	.	.	.	.	.	.	.	.	.
4r	.	4r	4r	.	4r	.	.	.	.	.	.	.	.	.	.	.	.	.
*	*	*	*	*	*2\right	*	*	*	*	*	*	*	*	*	*	*	*	*
!	!	!	!	!	!	!LO:DY:b	!	!	!	!	!	!	!	!	!	!	!	!
2E\	6	2E\	2g/	.	2cc\	f	.	.	.	.	.	.	8r	.	.	.	.	.
.	.	.	.	.	.	.	.	.	.	.	.	.	8g\	Mu-	.	.	.	.
.	.	.	.	.	.	.	.	.	.	.	.	.	8cc\	-sae	.	.	.	.
.	.	.	.	.	.	.	.	.	.	.	.	.	8ee\	pi-	.	.	.	.
4r	.	4r	4r	.	4r	.	.	.	.	.	.	.	8cc\	-ae	.	.	.	.
.	.	.	.	.	.	.	.	.	.	.	.	.	8g\	si-	.	.	.	.
=31	=31	=31	=31	=31	=31	=31	=31	=31	=31	=31	=31	=31	=31	=31	=31	=31	=31	=31
!	!	!	!	!	!	!	!	!	!LO:N:vis=2	!	!	!	!	!	!	!	!	!
2F\	.	2F\	2a/	.	2cc\	.	.	.	2.r	.	8r	.	4.a\	-len-	.	.	.	.
.	.	.	.	.	.	.	.	.	.	.	8c/	Gar-	.	.	.	.	.	.
.	.	.	.	.	.	.	.	.	.	.	8f\	-rit	.	.	.	.	.	.
.	.	.	.	.	.	.	.	.	.	.	8a\	Pu-	8a\	-ti-	.	.	.	.
4r	.	4r	4r	.	4r	.	.	.	.	.	8f\	-er	4a\	-um	.	.	.	.
.	.	.	.	.	.	.	.	.	.	.	8c/	per	.	.	.	.	.	.
2D/	.	2D/	2a/	.	2ff\	.	.	.	8r	.	4.d\	som-	4r	.	.	.	.	.
.	.	.	.	.	.	.	.	.	8A/	aus-	.	.	.	.	.	.	.	.
.	.	.	.	.	.	.	.	.	8d\	-cul-	.	.	4r	.	.	.	.	.
.	.	.	.	.	.	.	.	.	8f\	-to	8d\	-ni-	.	.	.	.	.	.
4r	.	4r	4r	.	4r	.	.	.	8d\	sunt	4d\	-um	4dd\	si-	.	.	.	.
.	.	.	.	.	.	.	.	.	8A/	pra-	.	.	.	.	.	.	.	.
=32	=32	=32	=32	=32	=32	=32	=32	=32	=32	=32	=32	=32	=32	=32	=32	=32	=32	=32
2GG/	.	2GG/	2b/	.	2dd\	.	8r	.	4.B\	-sa-	4r	.	4.dd\	-len-	.	.	.	.
.	.	.	.	.	.	.	8D/	nos	.	.	.	.	.	.	.	.	.	.
.	.	.	.	.	.	.	8G\	ve-	.	.	4r	.	.	.	.	.	.	.
.	.	.	.	.	.	.	8B\	-ra	8B\	-gi-	.	.	8cc\	-ti-	.	.	.	.
4r	.	4r	4r	.	4r	.	8G\	chri-	4B\	-a	4g\	Si-	4b\	-um	.	.	.	.
.	.	.	.	.	.	.	8D/	-sto	.	.	.	.	.	.	.	.	.	.
!	!	!	!	!	!	!	!	!	!LO:N:vis=2	!	!	!	!LO:N:vis=2	!	!	!	!	!
2C/	.	2C/	8cc\	.	8ccc\	.	4.E\	Som-	2.r	.	4.g\	-len-	2.r	.	.	.	.	.
.	.	.	4g/	.	4gg\	.	.	.	.	.	.	.	.	.	.	.	.	.
.	.	.	4e/	.	4ee\	.	8E\	-ni-	.	.	8f\	-ti-	.	.	.	.	.	.
4r	.	4r	.	.	.	.	4E\	-a	.	.	4e\	-um	.	.	.	.	.	.
.	.	.	8c/	.	8cc\	.	.	.	.	.	.	.	.	.	.	.	.	.
!	!	!	!	!	!LO:LB:g=original	!	!	!	!	!	!	!	!	!	!	!	!	!
=33	=33	=33	=33	=33	=33	=33	=33	=33	=33	=33	=33	=33	=33	=33	=33	=33	=33	=33
!LO:TX:b:i:t=Tutti	!	!	!	!LO:DY:a	!	!	!	!	!LO:TX:a:i:t=Tutti	!	!	!	!LO:TX:b:i:t=Tutti	!	!	!	!	!
2.C/	5	2.C/	2g/	f	[4ee\	.	16G\LL	nos	4r	.	8e\L	nos	[4ee\	nos	8gg\L	.	8r	.
.	.	.	.	.	.	.	16F\	.	.	.	.	.	.	.	.	.	.	.
.	.	.	.	.	.	.	16E\	.	.	.	8g\	.	.	.	8ee\	.	8gg\L	.
.	.	.	.	.	.	.	16D\JJ	.	.	.	.	.	.	.	.	.	.	.
!	!	!	!	!	!	!	!LO:TX:t=P:problem=mixed beam	!	!	!	!	!	!	!	!	!	!	!
.	.	.	.	.	16ee\LL]	.	8C/L	ve-	4.A/	nos	8e\	.	16ee\LL]	.	8cc\	.	8ee\	.
.	.	.	.	.	16dd\	.	.	.	.	.	.	.	16dd\	.	.	.	.	.
.	.	.	.	.	16cc\	.	8BB/	.	.	.	8d\J	.	16cc\	.	8ee\	.	8cc\J	.
.	.	.	.	.	16b\JJ	.	.	.	.	.	.	.	16b\JJ	.	.	.	.	.
.	6	.	[4a/	.	4cc\	.	8AA/	.	.	.	4e\	ve-	4cc\	ve-	8aa\	.	8r	.
.	.	.	.	.	.	.	[8A\J	.	8G/	.	.	.	.	.	8ee\J	.	8aa\	.
2.D\	5	2.D/	2a/]	.	[4ff\	.	16A\LL]	.	4.F/	ve-	8f\L	.	[4ff\	.	8r	.	8ff\L	.
.	.	.	.	.	.	.	16G\	.	.	.	.	.	.	.	.	.	.	.
.	.	.	.	.	.	.	16F\	.	.	.	8a\	.	.	.	8aa\L	.	8dd\J	.
.	.	.	.	.	.	.	16E\JJ	.	.	.	.	.	.	.	.	.	.	.
!	!	!	!	!	!	!	!LO:TX:t=P:problem=mixed beam	!	!	!	!	!	!	!	!	!	!	!
.	.	.	.	.	16ff\LL]	.	8D/L	.	.	.	8f\	.	16ff\LL]	.	8ff\	.	8r	.
.	.	.	.	.	16ee\	.	.	.	.	.	.	.	16ee\	.	.	.	.	.
.	.	.	.	.	16dd\	.	8C/	.	8D/	.	8e\J	.	16dd\	.	8dd\	.	8aa\L	.
.	.	.	.	.	16cc\JJ	.	.	.	.	.	.	.	16cc\JJ	.	.	.	.	.
.	6	.	[4b/	.	4dd\	.	8BB/	.	[y4B\	.	4f\	.	4dd\	.	8aa\	.	8ff\	.
.	.	.	.	.	.	.	[>8B\J	.	.	.	.	.	.	.	8ff\J	.	8bb\J	.
=34	=34	=34	=34	=34	=34	=34	=34	=34	=34	=34	=34	=34	=34	=34	=34	=34	=34	=34
!	!	!	!	!	!	!	!	!	!LO:N:xstem:cue	!	!	!	!	!	!	!	!	!
2.E\	5	2.E\	2b/]	.	[4gg\	.	16B\LL]	.	8B]	.	8g\L	.	4gg\	.	8gg\L	.	8r	.
.	.	.	.	.	.	.	16A\	.	.	.	.	.	.	.	.	.	.	.
.	.	.	.	.	.	.	16G\	.	8A\	.	8b\	.	.	.	8ee\J	.	8bb\L	.
.	.	.	.	.	.	.	16F\JJ	.	.	.	.	.	.	.	.	.	.	.
.	.	.	.	.	16gg\LL]	.	8E\L	.	4.G/	.	8g\	.	16gg\LL	.	8r	.	8gg\	.
.	.	.	.	.	16ff\	.	.	.	.	.	.	.	16ff\	.	.	.	.	.
.	.	.	.	.	16ee\	.	8D\J	.	.	.	8f\J	.	16ee\	.	8bb\L	.	8ee\J	.
.	.	.	.	.	16dd\JJ	.	.	.	.	.	.	.	16dd\JJ	.	.	.	.	.
!	!	!	!	!	!	!	!LO:TX:t=P:problem=mixed beam	!	!	!	!	!	!	!	!	!	!	!
.	6	.	[4cc\	.	4ee\	.	8C/L	.	.	.	4g\	.	4ee\	.	8gg\	.	8r	.
.	.	.	.	.	.	.	8c\J	.	8E/	.	.	.	.	.	8ee\J	.	8gg\	.
*	*	*	*	*	*	*	*	*	*	*	*	*	*custos:aa	*	*	*	*	*
!	!	!	!	!	!	!	!	!	!	!	!	!	!LO:LB:g=original	!	!	!	!	!
2.F\	5	2.F\	2cc\]	.	[4aa\	.	16c\LL	.	4.c\	.	8a\L	.	[4aa\	.	4cc\	.	4aa\	.
.	.	.	.	.	.	.	16B\	.	.	.	.	.	.	.	.	.	.	.
.	.	.	.	.	.	.	16A\	.	.	.	8cc\	.	.	.	.	.	.	.
.	.	.	.	.	.	.	16G\JJ	.	.	.	.	.	.	.	.	.	.	.
*	*	*	*	*	*	*	*custos:F	*	*	*	*	*	*	*	*	*	*	*
!	!	!	!	!	!	!	!LO:LB:g=original	!	!	!	!	!	!	!	!	!	!	!
.	.	.	.	.	16aa\LL]	.	8F\L	.	.	.	8a\	.	16aa\LL]	.	4r	.	4r	.
.	.	.	.	.	16gg\	.	.	.	.	.	.	.	16gg\	.	.	.	.	.
.	.	.	.	.	16ff\	.	8E\	.	8B\	.	8g\J	.	16ff\	.	.	.	.	.
.	.	.	.	.	16ee\JJ	.	.	.	.	.	.	.	16ee\JJ	.	.	.	.	.
.	6	.	4dd\	.	4ff\	.	8D\	.	4A\	.	4a\	.	4ff\	.	4r	.	4r	.
.	.	.	.	.	.	.	8d\J	.	.	.	.	.	.	.	.	.	.	.
*	*	*	*custos:b	*	*	*	*	*	*custos:d	*	*custos:b	*	*	*	*	*	*	*
!	!	!	!LO:LB:g=original	!	!	!	!	!	!LO:LB:g=original	!	!LO:LB:g=original	!	!	!	!	!	!	!
=35	=35	=35	=35	=35	=35	=35	=35	=35	=35	=35	=35	=35	=35	=35	=35	=35	=35	=35
4G\	7	4G\	4b/	.	4ff\	.	4G\	-ra	4d\	-ra	4b\	-ra	4ff\	-ra	4dd\	.	4ff\	.
4G\	.	4G\	4b/	.	4dd\	.	4G\	ve-	4d\	ve-	4b\	ve-	4ff\	ve-	4dd\	.	4ff\	.
4G\	.	4G\	4b/	.	4dd\	.	4G\	-ra	4d\	-ra	4b\	-ra	4ff\	-ra	4dd\	.	4ff\	.
!LO:N:vis=2	!	!LO:N:vis=2	!	!	!	!	!LO:N:vis=2	!	!LO:N:vis=2	!	!LO:N:vis=2	!	!LO:N:vis=2	!	!	!	!	!
2.r	.	2.r	8ee\	.	8gg\	.	2.r	.	2.r	.	2.r	.	2.r	.	8ee\	.	8gg\	.
.	.	.	4dd\	.	4ff\	.	.	.	.	.	.	.	.	.	4dd\	.	4ff\	.
.	.	.	4cc\	.	4ee\	.	.	.	.	.	.	.	.	.	4cc\	.	4ee\	.
.	.	.	8b/	.	8dd\	.	.	.	.	.	.	.	.	.	8g/	.	8dd\	.
!LO:LB:g=original	!	!	!	!	!	!	!	!	!	!	!	!	!	!	!	!	!	!
=36	=36	=36	=36	=36	=36	=36	=36	=36	=36	=36	=36	=36	=36	=36	=36	=36	=36	=36
4G\	7	4G\	4b/	.	4ff\	.	4G\	nos	4d\	nos	4b\	nos	4ff\	nos	4dd\	.	4ff\	.
4G\	.	4G\	4b/	.	4ff\	.	4G\	ve-	4d\	ve-	4b\	ve-	4ff\	ve-	4dd\	.	4ff\	.
4G\	.	4G\	4b/	.	4ff\	.	4G\	-ra	4d\	-ra	4b\	-ra	4ff\	-ra	4dd\	.	4ff\	.
!LO:N:vis=2	!	!LO:N:vis=2	!	!	!	!	!LO:N:vis=2	!	!LO:N:vis=2	!	!LO:N:vis=2	!	!LO:N:vis=2	!	!	!	!	!
2.r	.	2.r	8e/	.	8g/	.	2.r	.	2.r	.	2.r	.	2.r	.	8ee\	.	8gg\	.
.	.	.	4d/	.	4f/	.	.	.	.	.	.	.	.	.	4dd\	.	4ff\	.
.	.	.	4c/	.	4e/	.	.	.	.	.	.	.	.	.	4cc\	.	4ee\	.
.	.	.	8B/	.	8d/	.	.	.	.	.	.	.	.	.	8g/	.	8dd\	.
=37	=37	=37	=37	=37	=37	=37	=37	=37	=37	=37	=37	=37	=37	=37	=37	=37	=37	=37
!LO:TX:b:i:rj:t=Solo	!	!	!	!	!	!	!LO:TX:a:t=2	!	!LO:TX:a:t=2	!	!LO:TX:a:t=2	!	!LO:TX:a:t=2	!	!	!	!	!
4F#X\	-7_	4F#X\	2.a/	.	2.ee-X\	.	0.r	.	0.r	.	0.r	.	0.r	.	4cc\	.	4cc\	.
4F#\	.	4F#\	.	.	.	.	.	.	.	.	.	.	.	.	4cc\	.	4cc\	.
4F#\	.	4F#\	.	.	.	.	.	.	.	.	.	.	.	.	4cc\	.	4cc\	.
!	!	!	!	!	!	!	!	!	!	!	!	!	!	!	!LO:N:vis=2	!	!LO:N:vis=2	!
4G\	6 4	4G\	4cc\	.	4ee-\	.	.	.	.	.	.	.	.	.	2.r	.	2.r	.
4GG/	5 n	4GG/	4b\	.	4dd\	.	.	.	.	.	.	.	.	.	.	.	.	.
4r	.	4r	4r	.	4r	.	.	.	.	.	.	.	.	.	.	.	.	.
=38	=38	=38	=38	=38	=38	=38	=38	=38	=38	=38	=38	=38	=38	=38	=38	=38	=38	=38
2C/	.	2C/	8ee\	.	8gg\	.	.	.	.	.	.	.	.	.	8ee\	.	8gg\	.
.	.	.	4cc\	.	4een\	.	.	.	.	.	.	.	.	.	4cc\	.	4ee\	.
.	.	.	4ff\	.	4aa\	.	.	.	.	.	.	.	.	.	4ff\	.	4aa\	.
4r	.	4r	.	.	.	.	.	.	.	.	.	.	.	.	.	.	.	.
.	.	.	8ee\	.	8gg\	.	.	.	.	.	.	.	.	.	8ee\	.	8gg\	.
4BB/	5	4BB/	4dd\	.	4ff\	.	.	.	.	.	.	.	.	.	4dd\	.	4ff\	.
4C/	.	4C/	4cc\	.	4ee\	.	.	.	.	.	.	.	.	.	4cc\	.	4ee\	.
4r	.	4r	4r	.	4r	.	.	.	.	.	.	.	.	.	4r	.	4r	.
=39	=39	=39	=39	=39	=39	=39	=39	=39	=39	=39	=39	=39	=39	=39	=39	=39	=39	=39
!LO:TX:b:i:t=Tutti	!	!	!	!	!	!	!	!	!	!	!	!	!	!	!	!	!	!
4G\	8	4G\	4g/	.	4gg\	.	4G\	nos	4g\	nos	4g\	nos	4gg\	nos	4gg\	.	4gg\	.
4F\	8	4F\	4f/	.	4ff\	.	4F\	ve-	4f\	ve-	4f\	ve-	4ff\	ve-	4ff\	.	4ff\	.
4E\	8	4E\	4e/	.	4ee\	.	4E\	-ra	4e\	-ra	4e\	-ra	4ee\	-ra	4ee\	.	4ee\	.
8F\L	8	8F\L	8f/L	.	8ff\L	.	8F\L	Chri-	8f\L	Chri-	8f\L	Chri-	8ff\L	Chri-	8ff\L	.	8ff\L	.
8E\	8	8E\	8e/	.	8ee\	.	8E\	.	8e\	.	8e\	.	8ee\	.	8ee\	.	8ee\	.
8F\	8	8F\	8f/	.	8ff\	.	8F\	.	8f\	.	8f\	.	8ff\	.	8ff\	.	8ff\	.
8D\	8	8D\	8d/	.	8dd\	.	8D\J	.	8d\J	.	8d\J	.	8dd\J	.	8dd\	.	8dd\	.
8E\	8	8E\	8e/	.	8ee\	.	(8E\L	-sto	(8e\L	-sto	8e\L	-sto	8ee\L	-sto	8ee\	.	8ee\	.
8F\J	8	8F\J	8f/J	.	8ff\J	.	8F\J)	.	8f\J)	.	8f\J	.	8ff\J	.	8ff\J	.	8ff\J	.
*	*	*custos:G	*	*	*	*	*	*	*	*	*	*	*	*	*	*	*	*
!	!	!LO:LB:g=original	!	!	!	!	!	!	!	!	!	!	!	!	!	!	!	!
=40	=40	=40	=40	=40	=40	=40	=40	=40	=40	=40	=40	=40	=40	=40	=40	=40	=40	=40
4.G\	8	4.G\	4.g/	.	4.gg\	.	4.G\	Som-	4.g\	Som-	4.g\	Som-	4.gg\	Som-	4.gg\	.	4.gg\	.
8GG/	8	8GG/	8g/	.	8g/	.	8GG/	-ni-	8G/	-ni-	8G/	-ni-	8gg\	-ni-	8g/	.	8g/	.
4C/	8	4C/	8g/L	.	4cc\	.	4C/	-a	4c\	-a	4c/	-a	4cc\	-a	4cc\	.	4cc\	.
.	.	.	8c/J	.	.	.	.	.	.	.	.	.	.	.	.	.	.	.
*	*	*	*	*	*	*	*	*	*	*	*	*	*	*	*custos:ee	*	*custos:gg	*
!LO:N:vis=2	!	!LO:N:vis=2	!	!	!	!	!LO:N:vis=2	!	!LO:N:vis=2	!	!LO:N:vis=2	!	!LO:N:vis=2	!	!LO:LB:g=original	!	!LO:LB:g=original	!
2.r	.	2.r	8ee\	.	8gg\	.	2.r	.	2.r	.	2.r	.	2.r	.	8ee\	.	8gg\	.
.	.	.	4dd\	.	4ff\	.	.	.	.	.	.	.	.	.	4dd\	.	4ff\	.
.	.	.	4cc\	.	4ee\	.	.	.	.	.	.	.	.	.	4cc\	.	4ee\	.
.	.	.	8b\	.	8dd\	.	.	.	.	.	.	.	.	.	8g/	.	8dd\	.
=41	=41	=41	=41	=41	=41	=41	=41	=41	=41	=41	=41	=41	=41	=41	=41	=41	=41	=41
4C/	.	4C/	4cc\	.	4ee\	.	4C/	nos	4e\	nos	4g\	nos	4ee\	nos	4cc\	.	4ee\	.
2E\	6	2E\	4cc\	.	4gg\	.	4E\	ve-	4c\	ve-	4g\	ve-	4gg\	ve-	4cc\	.	4gg\	.
.	.	.	4cc\	.	4ee\	.	4E\	-ra	4c\	-ra	4g\	-ra	4ee\	-ra	4cc\	.	4gg\	.
4F\	.	4F\	4cc\	.	4aa\	.	4F\	chri-	4A/	Chri-	4a\	Chri-	4cc\	Chri-	4cc\	.	4aa\	.
*	*	*	*	*	*	*	*	*	*2\right	*	*2\right	*	*	*	*	*	*2\right	*
2D\	5	2D\	4a/	.	2ff\	.	2D/	-sto	2d\	-sto	2f\	-sto	4a\	.	4ff\	.	2ff\	.
.	6	.	4b/	.	.	.	.	.	.	.	.	.	4b\	-sto	4dd\	.	.	.
=42	=42	=42	=42	=42	=42	=42	=42	=42	=42	=42	=42	=42	=42	=42	=42	=42	=42	=42
2.C/	5	2.C/	16gg\LL	.	4gg\	.	2.C/	Som-	4e\	Som-	16g\LL	som-	4g/	som-	4ee\	.	4.gg\	.
.	.	.	16ff\	.	.	.	.	.	.	.	16f\	.	.	.	.	.	.	.
.	.	.	16ee\	.	.	.	.	.	.	.	16e\	.	.	.	.	.	.	.
.	.	.	16dd\JJ	.	.	.	.	.	.	.	16d\JJ	.	.	.	.	.	.	.
!	!	!	!	!	!	!	!	!	!	!	!LO:TX:t=P:problem=mixed beam	!	!	!	!	!	!	!
.	.	.	8cc\L	.	4.ee\	.	.	.	4G/	.	8c/L	.	4.e/	.	4.ee\	.	.	.
.	.	.	8b\	.	.	.	.	.	.	.	8B/	.	.	.	.	.	8ee\	.
.	6	.	8a\	.	.	.	.	.	4e\	.	8A/	.	.	.	.	.	4aa\	.
.	.	.	[8aa\J	.	8cc\	.	.	.	.	.	[>8a\J	.	8c/	.	8cc\	.	.	.
*	*	*	*	*	*custos:aa	*	*	*	*	*	*	*	*	*	*	*	*	*
!	!	!	!	!	!LO:LB:g=original	!	!	!	!	!	!	!	!	!	!	!	!	!
2.D\	5	2.D/	16aa\LL]	.	4aa\	.	2D/	.	4f\	.	16a\LL]	.	4a\	.	4ff\	.	4.aa\	.
.	.	.	16gg\	.	.	.	.	.	.	.	16g\	.	.	.	.	.	.	.
.	.	.	16ff\	.	.	.	.	.	.	.	16f\	.	.	.	.	.	.	.
.	.	.	16ee\JJ	.	.	.	.	.	.	.	16e\JJ	.	.	.	.	.	.	.
.	.	.	8dd\L	.	4.ff\	.	.	.	4A/	.	8d\L	.	4.f/	.	4.ff\	.	.	.
.	.	.	8cc\	.	.	.	.	.	.	.	8c\J	.	.	.	.	.	8ff\	.
!	!	!	!	!	!	!	!	!	!	!	!LO:TX:t=P:problem=mixed beam	!	!	!	!	!	!	!
.	6	.	8b\	.	.	.	4d\	.	4f\	.	8B/L	.	.	.	.	.	4bb\	.
.	.	.	8bb\J	.	8dd\	.	.	.	.	.	8b\J	.	8d/	.	8dd\	.	.	.
=43	=43	=43	=43	=43	=43	=43	=43	=43	=43	=43	=43	=43	=43	=43	=43	=43	=43	=43
2.E\	5	2.E\	4.gg\	.	4bb\	.	16B\LL	.	4g\	.	4.g\	.	4b\	.	8ee\L	.	4.gg\	.
.	.	.	.	.	.	.	16A\	.	.	.	.	.	.	.	.	.	.	.
.	.	.	.	.	.	.	16G\	.	.	.	.	.	.	.	8ff\J	.	.	.
.	.	.	.	.	.	.	16F\JJ	.	.	.	.	.	.	.	.	.	.	.
*	*	*	*	*	*	*	*	*	*	*	*	*	*	*	*2\right	*	*	*
.	.	.	.	.	4.gg\	.	8E\L	.	4B\	.	.	.	4.g/	.	2gg\	.	.	.
.	.	.	8ff\	.	.	.	8D\J	.	.	.	8f\	.	.	.	.	.	8ff\	.
!	!	!	!	!	!	!	!LO:TX:t=P:problem=mixed beam	!	!	!	!	!	!	!	!	!	!	!
.	6	.	4ee\	.	.	.	8C/L	.	4g\	.	4e\	.	.	.	.	.	4ee\	.
.	.	.	.	.	8ee\	.	[8c\J	.	.	.	.	.	8e/	.	.	.	.	.
2.F\	5	2.F\	4.aa\	.	4ccc\	.	16c\LL]	.	2.A/	.	4.a\	.	4cc\	.	8ff\L	.	4.aa\	.
.	.	.	.	.	.	.	16B\	.	.	.	.	.	.	.	.	.	.	.
.	.	.	.	.	.	.	16A\	.	.	.	.	.	.	.	8gg\J	.	.	.
.	.	.	.	.	.	.	16G\JJ	.	.	.	.	.	.	.	.	.	.	.
.	.	.	.	.	4.aa\	.	8F\L	.	.	.	.	.	4.a\	.	2aa\	.	.	.
.	.	.	8gg\	.	.	.	8E\J	.	.	.	8g\	.	.	.	.	.	8gg\	.
!	!	!	!	!	!	!	!LO:TX:t=P:problem=mixed beam	!	!	!	!	!	!	!	!	!	!	!
.	6	.	4ff\	.	.	.	8D/L	.	.	.	4f\	.	.	.	.	.	4ff\	.
.	.	.	.	.	8ff\	.	8d\J	.	.	.	.	.	8f/	.	.	.	.	.
!	!	!	!LO:LB:g=original	!	!	!	!	!	!	!	!LO:LB:g=original	!	!LO:LB:g=original	!	!	!	!	!
=44	=44	=44	=44	=44	=44	=44	=44	=44	=44	=44	=44	=44	=44	=44	=44	=44	=44	=44
2.G\	5	2.G\	4dd\	.	4bb\	.	4.B\	.	16d\LL	.	4d\	.	4b\	.	4dd\	.	4dd\	.
.	.	.	.	.	.	.	.	.	16c\	.	.	.	.	.	.	.	.	.
.	.	.	.	.	.	.	.	.	16B\	.	.	.	.	.	.	.	.	.
.	.	.	.	.	.	.	.	.	16A\JJ	.	.	.	.	.	.	.	.	.
!	!	!	!	!	!	!	!	!	!LO:TX:t=P:problem=mixed beam	!	!	!	!	!	!	!	!	!
.	.	.	4b\	.	4dd\	.	.	.	8G/L	.	4B/	.	4d/	.	[2ee\	.	4g/	.
.	.	.	.	.	.	.	8A\	.	8F/	.	.	.	.	.	.	.	.	.
.	6	.	8gg\L	.	4bb\	.	4G\	.	8E/	.	8g\L	.	4b\	.	.	.	8gg\L	.
.	.	.	8ff\J	.	.	.	.	.	[8e\J	.	8f\J	.	.	.	.	.	8ff\J	.
!	!	!	!	!	!	!	!LO:LB:g=original	!	!	!	!	!	!	!	!	!	!	!
2.A\	5	2.A\	4ee\	.	4ccc\	.	4.c\	.	16e\LL]	.	4e\	.	4cc\	.	4ee\]	.	4ee\	.
.	.	.	.	.	.	.	.	.	16d\	.	.	.	.	.	.	.	.	.
.	.	.	.	.	.	.	.	.	16c\	.	.	.	.	.	.	.	.	.
.	.	.	.	.	.	.	.	.	16B\JJ	.	.	.	.	.	.	.	.	.
!	!	!	!	!	!	!	!	!	!LO:TX:t=P:problem=mixed beam	!	!	!	!	!	!	!	!	!
.	.	.	4cc\	.	4ee\	.	.	.	8A/L	.	4c/	.	4e/	.	2ff\	.	4cc\	.
.	.	.	.	.	.	.	8B\	.	8G/	.	.	.	.	.	.	.	.	.
.	6	.	8aa\L	.	4ccc\	.	4A\	.	8F/	.	8a\L	.	4cc\	.	.	.	8aa\L	.
.	.	.	8gg\J	.	.	.	.	.	8f\J	.	8g\J	.	.	.	.	.	8gg\J	.
*	*	*	*	*	*	*	*	*	*custos:d	*	*	*	*	*	*	*	*	*
!	!	!	!	!	!	!	!	!	!LO:LB:g=original	!	!	!	!	!	!	!	!	!
=45	=45	=45	=45	=45	=45	=45	=45	=45	=45	=45	=45	=45	=45	=45	=45	=45	=45	=45
*	*	*	*	*	*	*	*2\right	*	*	*	*	*	*	*	*	*	*	*
2.B\	5	2.B\	4ff\	.	16ff\LL	.	2.B\	.	4.d\	.	4f\	.	16ff\LL	.	4dd\	.	4ff\	.
.	.	.	.	.	16ee\	.	.	.	.	.	.	.	16ee\	.	.	.	.	.
.	.	.	.	.	16dd\	.	.	.	.	.	.	.	16dd\	.	.	.	.	.
.	.	.	.	.	16cc\JJ	.	.	.	.	.	.	.	16cc\JJ	.	.	.	.	.
!	!	!	!	!	!LO:TX:t=P:problem=mixed beam	!	!	!	!	!	!	!	!	!	!	!	!	!
.	.	.	4.dd\	.	8b/L	.	.	.	.	.	4.d\	.	8b\L	.	4ff\	.	4dd\	.
.	.	.	.	.	8a/	.	.	.	8B\	.	.	.	8a\	.	.	.	.	.
.	6	.	.	.	8g/	.	.	.	4G/	.	.	.	8g\	.	4dd\	.	[4gg\	.
.	.	.	8b/	.	[>8gg\J	.	.	.	.	.	8B/	.	[8gg\J	.	.	.	.	.
2.c\	5	2.c\	4gg\	.	16gg\LL]	.	2.c\	.	4.e\	.	4g\	.	16gg\LL]	.	4ee\	.	4gg\]	.
.	.	.	.	.	16ff\	.	.	.	.	.	.	.	16ff\	.	.	.	.	.
.	.	.	.	.	16ee\	.	.	.	.	.	.	.	16ee\	.	.	.	.	.
.	.	.	.	.	16dd\JJ	.	.	.	.	.	.	.	16dd\JJ	.	.	.	.	.
.	.	.	4.ee\	.	8cc\L	.	.	.	.	.	4.e\	.	8cc\L	.	4gg\	.	4ee\	.
.	.	.	.	.	8b\	.	.	.	8c\	.	.	.	8b\	.	.	.	.	.
.	6	.	.	.	8a\	.	.	.	4A/	.	.	.	8a\	.	4ee\	.	4aa\	.
.	.	.	8cc\	.	8aa\J	.	.	.	.	.	8c/	.	8aa\J	.	.	.	.	.
=46	=46	=46	=46	=46	=46	=46	=46	=46	=46	=46	=46	=46	=46	=46	=46	=46	=46	=46
2G\	7	2G\	4.dd\	.	4.ff\	.	4.G\	.	4.B\	.	4.d\	.	4.ff\	.	4.dd\	.	4.ff\	.
.	.	.	8dd\	.	8ff\	.	8G\	-ni-	8B\	-ni-	8d\	-ni-	8ff\	-ni-	8dd\	.	8ff\	.
4GG/	.	4GG/	4dd\	.	4ff\	.	4G\	-a	4B\	-a	4d\	-a	4ff\	-a	4dd\	.	4ff\	.
!LO:N:vis=2	!	!LO:N:vis=2	!LO:N:vis=2	!	!LO:N:vis=2	!	!LO:N:vis=2	!	!	!	!	!	!LO:N:vis=2	!	!LO:N:vis=2	!	!LO:N:vis=2	!
2.r	.	2.r	2.r	.	2.r	.	2.r	.	8e\	nos	8g\	nos	2.r	.	2.r	.	2.r	.
.	.	.	.	.	.	.	.	.	4c\	.	4e\	.	.	.	.	.	.	.
.	.	.	.	.	.	.	.	.	4f\	.	4a\	.	.	.	.	.	.	.
.	.	.	.	.	.	.	.	.	8e\	.	8g\	.	.	.	.	.	.	.
!LO:LB:g=original	!	!	!	!	!	!	!	!	!	!	!	!	!	!	!	!	!	!
=47	=47	=47	=47	=47	=47	=47	=47	=47	=47	=47	=47	=47	=47	=47	=47	=47	=47	=47
4B\	5	4B\	4dd\	.	4ff\	.	4B\	ve-	4d\	ve-	4f\	ve-	4dd\	ve-	4dd\	.	4ff\	.
4c\	.	4c\	4cc\	.	4ee\	.	4c\	-ra	4c\	-ra	4e\	-ra	4ee\	-ra	4cc\	.	4ee\	.
4r	.	4r	4r	.	4r	.	4r	.	4r	.	4r	.	4r	.	4r	.	4r	.
!LO:N:vis=2	!	!LO:N:vis=2	!LO:N:vis=2	!	!LO:N:vis=2	!	!LO:N:vis=2	!	!LO:N:vis=2	!	!LO:N:vis=2	!	!LO:N:vis=2	!	!	!	!	!
2.r	.	2.r	2.r	.	2.r	.	2.r	.	2.r	.	2.r	.	2.r	.	8ee\	.	8gg\	.
.	.	.	.	.	.	.	.	.	.	.	.	.	.	.	4dd\	.	4ff\	.
.	.	.	.	.	.	.	.	.	.	.	.	.	.	.	4cc\	.	4ee\	.
.	.	.	.	.	.	.	.	.	.	.	.	.	.	.	8g/	.	8dd\	.
=48	=48	=48	=48	=48	=48	=48	=48	=48	=48	=48	=48	=48	=48	=48	=48	=48	=48	=48
!LO:TX:b:i:t=Solo	!	!	!LO:N:vis=2	!	!LO:N:vis=2	!	!	!	!LO:N:vis=2	!	!LO:N:vis=2	!	!	!	!	!	!	!
2G\	.	2G\	2.r	.	2.r	.	8B\	nos	2.r	.	2.r	.	8dd\	nos	00.r	.	00.r	.
.	.	.	.	.	.	.	4G\	.	.	.	.	.	4b\	.	.	.	.	.
.	.	.	.	.	.	.	4c\	.	.	.	.	.	4ee\	.	.	.	.	.
4r	.	4r	.	.	.	.	.	.	.	.	.	.	.	.	.	.	.	.
.	.	.	.	.	.	.	8B\	.	.	.	.	.	8dd\	.	.	.	.	.
!LO:TX:b:i:t=Tutti	!	!	!	!	!	!	!	!	!	!	!	!	!	!	!	!	!	!
4F#X\	5	4F#X\	4a/	.	4cc\	.	4F#X\	ve-	4f#X\	ve-	4a\	ve-	4cc\	ve-	.	.	.	.
4G\	.	4G\	4g/	.	4b\	.	4G\	-ra	4d\	-ra	4g\	-ra	4b\	-ra	.	.	.	.
4r	.	4r	4r	.	4r	.	4r	.	4r	.	4r	.	4r	.	.	.	.	.
=49	=49	=49	=49	=49	=49	=49	=49	=49	=49	=49	=49	=49	=49	=49	=49	=49	=49	=49
!LO:TX:b:i:t=Soli	!	!	!LO:TX:a:t=3.	!	!LO:TX:a:t=3.	!	!	!	!	!	!	!	!	!	!	!	!	!
4G\	7	4G\	0.r	.	0.r	.	4G\	nos	4B\	nos	4d\	nos	4ff\	nos	.	.	.	.
4G\	.	4G\	.	.	.	.	4G\	ve-	4B\	ve-	4d\	ve-	4ff\	ve-	.	.	.	.
4G\	.	4G\	.	.	.	.	4G\	-ra	4B\	-ra	4d\	-ra	4ff\	-ra	.	.	.	.
2c\	.	2c\	.	.	.	.	2c\	Chri-	2c\	Chri-	2e\	Chri-	4.ee\	Chri-	.	.	.	.
.	.	.	.	.	.	.	.	.	.	.	.	.	8dd\	.	.	.	.	.
8E\L	6	8E\L	.	.	.	.	(8E\L	-sto	4G/	-sto	4e\	-sto	4cc\	-sto	.	.	.	.
8F\J	.	8F\J	.	.	.	.	8F\J)	.	.	.	.	.	.	.	.	.	.	.
=50	=50	=50	=50	=50	=50	=50	=50	=50	=50	=50	=50	=50	=50	=50	=50	=50	=50	=50
*	*	*	*	*	*	*	*	*	*	*	*	*	*2\right	*	*	*	*	*
2G\	4	2G\	.	.	.	.	2G\	Som-	2G/	Som-	2d\	som-	2cc\	som-	.	.	.	.
4GG/	3	4GG/	.	.	.	.	4GG/	-ni-	4G/	-ni-	4d\	-ni-	4b\	-ni-	.	.	.	.
4C/	.	4C/	.	.	.	.	4C/	-a	4G/	-a	4e\	-a	4cc\	-a	.	.	.	.
!	!	!	!	!	!	!	!	!	!LO:TX:b:t=az	!	!	!	!	!	!	!	!	!
4r	.	4r	.	.	.	.	4r	.	4e\	Chri-	4g\	Chri-	4r	.	.	.	.	.
4r	.	4r	.	.	.	.	4r	.	4f\	-sto	4a\	-sto	4r	.	.	.	.	.
=51	=51	=51	=51	=51	=51	=51	=51	=51	=51	=51	=51	=51	=51	=51	=51	=51	=51	=51
!LO:TX:a:t=2	!	!LO:TX:a:t=1	!	!	!	!	!	!	!	!	!	!	!	!	!	!	!	!
0.r	.	1.r	1.r	.	1.r	.	4r	.	4.e\	Som-	4.g\	Som-	1.r	.	.	.	.	.
.	.	.	.	.	.	.	4r	.	.	.	.	.	.	.	.	.	.	.
.	.	.	.	.	.	.	.	.	8d\	-ni-	8f\	-ni-	.	.	.	.	.	.
.	.	.	.	.	.	.	4c\	Si-	4c\	-a	4e\	-a	.	.	.	.	.	.
!	!	!	!	!	!	!	!	!	!LO:N:vis=2	!	!LO:N:vis=2	!	!	!	!	!	!	!
.	.	.	.	.	.	.	4.c\	-len-	2.r	.	2.r	.	.	.	.	.	.	.
.	.	.	.	.	.	.	8C/	-ti-	.	.	.	.	.	.	.	.	.	.
.	.	.	.	.	.	.	4C/	-um	.	.	.	.	.	.	.	.	.	.
!	!	!	!	!	!	!	!	!	!	!	!LO:LB:g=original	!	!	!	!	!	!	!
=52	=52	=52	=52	=52	=52	=52	=52	=52	=52	=52	=52	=52	=52	=52	=52	=52	=52	=52
!	!	!	!	!LO:DY:a	!	!LO:DY:a	!LO:N:vis=2	!	!LO:N:vis=2	!	!LO:N:vis=2	!	!LO:N:vis=2	!	!	!	!	!
.	.	2C/	8e/	p	8g/	p	2.r	.	2.r	.	2.r	.	2.r	.	00.r	.	00.r	.
.	.	.	4c/	.	4e/	.	.	.	.	.	.	.	.	.	.	.	.	.
.	.	.	4f/	.	4a/	.	.	.	.	.	.	.	.	.	.	.	.	.
.	.	4r	.	.	.	.	.	.	.	.	.	.	.	.	.	.	.	.
.	.	.	8e/	.	8g/	.	.	.	.	.	.	.	.	.	.	.	.	.
.	.	4BB/	4d/	.	4f/	.	4r	.	4r	.	4r	.	4r	.	.	.	.	.
.	.	4C/	4c/	.	4e/	.	4r	.	4r	.	4r	.	4r	.	.	.	.	.
.	.	4r	4r	.	4r	.	4c\	Si-	4c\	Si-	4cc\	Si-	4cc\	si-	.	.	.	.
*	*	*	*	*	*	*	*	*	*custos:c	*	*	*	*	*	*	*	*	*
!	!	!	!	!	!	!	!	!	!LO:LB:g=original	!	!	!	!	!	!	!	!	!
=53-	=53	=53	=53	=53	=53	=53	=53	=53	=53	=53	=53	=53	=53	=53	=53	=53	=53	=53
!LO:N:vis=2	!	!LO:N:vis=2	!	!	!	!	!	!	!	!	!	!	!	!	!	!	!	!
2.r	.	2.r	4r	.	4r	.	4.c\	-len-	4.c\	-len-	4.cc\	-len-	4.cc\	-len-	.	.	.	.
.	.	.	4r	.	4r	.	.	.	.	.	.	.	.	.	.	.	.	.
.	.	.	.	.	.	.	8C/	-ti-	8c\	-ti-	8cc\	-ti-	8cc\	-ti-	.	.	.	.
.	.	.	4cc\	.	4ee\	.	4C/	-um	4c\	-um	4cc\	-um	4cc\	-um	.	.	.	.
!	!	!	!	!	!	!	!LO:N:vis=2	!	!LO:N:vis=2	!	!LO:N:vis=2	!	!LO:N:vis=2	!	!	!	!	!
4r	.	4r	4a/	.	4cc\	.	2.r	.	2.r	.	2.r	.	2.r	.	.	.	.	.
4r	.	4r	4a/	.	4cc\	.	.	.	.	.	.	.	.	.	.	.	.	.
4E\	#	4E\	4g#X/	.	4b\	.	.	.	.	.	.	.	.	.	.	.	.	.
*	*	*custos:A	*	*	*	*	*	*	*	*	*	*	*custos:cc	*	*	*	*	*
!	!	!LO:LB:g=original	!	!	!	!	!	!	!	!	!	!	!LO:LB:g=original	!	!	!	!	!
=54	=54	=54	=54	=54	=54	=54	=54	=54	=54	=54	=54	=54	=54	=54	=54	=54	=54	=54
!	!	!	!	!	!	!	!	!	!	!	!	!	!LO:TX:a:t=1	!	!	!	!	!
!	!	!	!	!	!	!	!LO:TX:a:t=1	!	!	!	!	!	!	!	!	!	!	!
4A\	.	4A\	4a/	.	4cc\	.	1.r	.	00.r	.	00.r	.	1.r	.	.	.	.	.
4r	.	4r	4a/	.	4cc\	.	.	.	.	.	.	.	.	.	.	.	.	.
4G#X\	7	4G#X\	4dd\	.	4ff\	.	.	.	.	.	.	.	.	.	.	.	.	.
!LO:N:vis=2	!	!LO:N:vis=2	!	!LO:DY:b	!	!	!	!	!	!	!	!	!	!	!	!	!	!
2.r	.	2.r	8dd\	f	8ff\	.	.	.	.	.	.	.	.	.	.	.	.	.
.	.	.	4cc\	.	4ee\	.	.	.	.	.	.	.	.	.	.	.	.	.
.	.	.	4b/	.	4dd\	.	.	.	.	.	.	.	.	.	.	.	.	.
.	.	.	8a/	.	8cc\	.	.	.	.	.	.	.	.	.	.	.	.	.
=55	=55	=55	=55	=55	=55	=55	=55	=55	=55	=55	=55	=55	=55	=55	=55	=55	=55	=55
!	!	!	!	!	!	!	!LO:N:vis=2	!	!	!	!	!	!LO:N:vis=2	!	!	!	!	!
4D#X\	7 5	4D#X\	4a/	.	4cc\	.	2.r	.	.	.	.	.	2.r	.	.	.	.	.
8E\L	#_	8E\L	4g#X/	.	4b\	.	.	.	.	.	.	.	.	.	.	.	.	.
8D#\	.	8D#\	.	.	.	.	.	.	.	.	.	.	.	.	.	.	.	.
8C\	.	8C\	4r	.	4r	.	.	.	.	.	.	.	.	.	.	.	.	.
8BB\J	X	8BB\J	.	.	.	.	.	.	.	.	.	.	.	.	.	.	.	.
!LO:TX:b:i:t=cant. Bass,	!	!	!LO:N:vis=2	!LO:N:vis=2	!	!	!LO:LB:g=original	!	!	!	!	!	!	!	!	!	!	!
2AA/	.	2AA/	2.r	.	2.r	.	8A\L	Sed	.	.	.	.	8cc\L	Sed	.	.	.	.
.	.	.	.	.	.	.	8B\J	.	.	.	.	.	8dd\J	.	.	.	.	.
.	.	.	.	.	.	.	4c\	ec-	.	.	.	.	4ee\	ec-	.	.	.	.
4r	.	4r	.	.	.	.	4A\	-ce	.	.	.	.	4cc\	-ce	.	.	.	.
*	*	*	*	*	*custos:b	*	*	*	*	*	*	*	*	*	*	*	*	*
!	!	!	!	!	!LO:LB:g=original	!	!	!	!	!	!	!	!	!	!	!	!	!
=56	=56	=56	=56	=56	=56	=56	=56	=56	=56	=56	=56	=56	=56	=56	=56	=56	=56	=56
!	!	!	!	!	!LO:TX:a:t=6	!	!	!	!	!	!	!	!	!	!	!	!	!
2D\	8 6	2D\	00.r	.	00.r	.	4B\	dum	.	.	.	.	4dd\	dum	00.r	.	00.r	.
.	7_ 5_	.	.	.	.	.	2A\	sol	.	.	.	.	2cc\	sol	.	.	.	.
4D#X\	.	4D#X\	.	.	.	.	.	.	.	.	.	.	.	.	.	.	.	.
2E\	#	2E\	.	.	.	.	4.G#X\	ru-	.	.	.	.	4.b\	ru-	.	.	.	.
.	.	.	.	.	.	.	8G#\	-ti-	.	.	.	.	8b\	-ti-	.	.	.	.
4G#X\	6	4G#X\	.	.	.	.	4G#\	-lat	.	.	.	.	4b\	-lat	.	.	.	.
=57	=57	=57	=57	=57	=57	=57	=57	=57	=57	=57	=57	=57	=57	=57	=57	=57	=57	=57
!	!	!	!	!	!	!	!LO:N:vis=2	!	!	!	!	!	!	!	!	!	!	!
2A\	#	2A\	.	.	.	.	2.r	.	.	.	.	.	8r	.	.	.	.	.
.	.	.	.	.	.	.	.	.	.	.	.	.	8ee\	Blan-	.	.	.	.
.	.	.	.	.	.	.	.	.	.	.	.	.	8cc#X\	-dus	.	.	.	.
.	.	.	.	.	.	.	.	.	.	.	.	.	8a\	pu-	.	.	.	.
4r	.	4r	.	.	.	.	.	.	.	.	.	.	8ee\	-er	.	.	.	.
.	.	.	.	.	.	.	.	.	.	.	.	.	8gg\	e	.	.	.	.
2D/	-	2D/	.	.	.	.	8r	.	.	.	.	.	4.ff\	vi-	.	.	.	.
.	.	.	.	.	.	.	8A\	Blan-	.	.	.	.	.	.	.	.	.	.
.	.	.	.	.	.	.	8F\	-dus	.	.	.	.	.	.	.	.	.	.
.	.	.	.	.	.	.	8D/	Pu-	.	.	.	.	8ff\	-gi-	.	.	.	.
4r	.	4r	.	.	.	.	8A\	-er	.	.	.	.	4ff\	-lat	.	.	.	.
.	.	.	.	.	.	.	8c\	è	.	.	.	.	.	.	.	.	.	.
=58	=58	=58	=58	=58	=58	=58	=58	=58	=58	=58	=58	=58	=58	=58	=58	=58	=58	=58
2G\	.	2G\	.	.	.	.	4.B\	vi-	00.r	.	00.r	.	8r	.	.	.	.	.
.	.	.	.	.	.	.	.	.	.	.	.	.	8dd\	et	.	.	.	.
.	.	.	.	.	.	.	.	.	.	.	.	.	8b\	noc-	.	.	.	.
.	.	.	.	.	.	.	8B\	-gi-	.	.	.	.	8g/	-tis	.	.	.	.
4r	.	4r	.	.	.	.	4B\	-lat	.	.	.	.	8dd\	e	.	.	.	.
.	.	.	.	.	.	.	.	.	.	.	.	.	8ff\	cun-	.	.	.	.
2C/	.	2C/	.	.	.	.	8r	.	.	.	.	.	4.ee\	-ba-	.	.	.	.
.	.	.	.	.	.	.	8G\	au-	.	.	.	.	.	.	.	.	.	.
.	.	.	.	.	.	.	8E\	-ro-	.	.	.	.	.	.	.	.	.	.
.	.	.	.	.	.	.	8C/	-ra	.	.	.	.	8ee\	-bi-	.	.	.	.
4r	.	4r	.	.	.	.	8G\	de	.	.	.	.	4ee\	-lis	.	.	.	.
.	.	.	.	.	.	.	8B-X\	tha-	.	.	.	.	.	.	.	.	.	.
*custos:F	*	*	*	*	*	*	*	*	*	*	*	*	*	*	*	*	*	*
!LO:LB:g=original	!	!	!	!	!	!	!	!	!	!	!	!	!	!	!	!	!	!
=59	=59	=59	=59	=59	=59	=59	=59	=59	=59	=59	=59	=59	=59	=59	=59	=59	=59	=59
2F\	.	2F\	.	.	.	.	4.A\	-la-	.	.	.	.	8r	.	.	.	.	.
.	.	.	.	.	.	.	.	.	.	.	.	.	8cc\	Au-	.	.	.	.
.	.	.	.	.	.	.	.	.	.	.	.	.	8ff\	-ro-	.	.	.	.
.	.	.	.	.	.	.	8A\	-mu-	.	.	.	.	8ee\	-ra	.	.	.	.
4r	.	4r	.	.	.	.	4A\	-lis	.	.	.	.	8dd\	de	.	.	.	.
.	.	.	.	.	.	.	.	.	.	.	.	.	8cc#X\	tha-	.	.	.	.
!LO:N:vis=2	!	!LO:N:vis=2	!	!	!	!	!	!	!	!	!	!	!	!	!	!	!	!
2.r	.	2.r	.	.	.	.	8r	.	.	.	.	.	[2.dd\	-la-	.	.	.	.
.	.	.	.	.	.	.	8F\	au-	.	.	.	.	.	.	.	.	.	.
.	.	.	.	.	.	.	8B-X\	-ro-	.	.	.	.	.	.	.	.	.	.
.	.	.	.	.	.	.	8A\	-ra	.	.	.	.	.	.	.	.	.	.
.	.	.	.	.	.	.	8G\	de	.	.	.	.	.	.	.	.	.	.
.	.	.	.	.	.	.	8F#X\	tha-	.	.	.	.	.	.	.	.	.	.
=60	=60	=60	=60	=60	=60	=60	=60	=60	=60	=60	=60	=60	=60	=60	=60	=60	=60	=60
4G\	6_ 5_	4G\	0.r	.	0.r	.	4G\	-la-	.	.	.	.	8dd\L]	.	00.r	.	00.r	.
.	.	.	.	.	.	.	.	.	.	.	.	.	8b\	.	.	.	.	.
2G#X\	.	2G#X\	.	.	.	.	2G#X\	.	.	.	.	.	8ee\	.	.	.	.	.
.	.	.	.	.	.	.	.	.	.	.	.	.	8dd\	.	.	.	.	.
.	.	.	.	.	.	.	.	.	.	.	.	.	8ccn\	.	.	.	.	.
.	.	.	.	.	.	.	.	.	.	.	.	.	8b\J	.	.	.	.	.
*	*	*	*	*	*	*	*	*	*	*	*	*	*custos:cc	*	*	*	*	*
!	!	!	!	!	!	!	!	!	!	!	!	!	!LO:LB:g=original	!	!	!	!	!
4A\	-	4A\	.	.	.	.	8A\L	.	.	.	.	.	4cc\	.	.	.	.	.
.	.	.	.	.	.	.	8E\	.	.	.	.	.	.	.	.	.	.	.
2E\	6 4	2E\	.	.	.	.	8A\	.	.	.	.	.	2cc#X\	.	.	.	.	.
.	.	.	.	.	.	.	8Gn\	.	.	.	.	.	.	.	.	.	.	.
.	.	.	.	.	.	.	8F\	.	.	.	.	.	.	.	.	.	.	.
.	.	.	.	.	.	.	8E\J	.	.	.	.	.	.	.	.	.	.	.
!	!	!	!	!	!	!	!LO:LB:g=original	!	!	!	!	!	!	!	!	!	!	!
=61	=61	=61	=61	=61	=61	=61	=61	=61	=61	=61	=61	=61	=61	=61	=61	=61	=61	=61
!LO:TX:t=P:problem=mixed beam	!	!LO:TX:t=P:problem=mixed beam	!	!	!	!	!	!	!	!	!	!	!	!	!	!	!	!
8F\L	6	8F\L	.	.	.	.	8F\L	.	.	.	.	.	8dd\L	.	.	.	.	.
8C#X/J	6	8C#X/J	.	.	.	.	8C#X\J	.	.	.	.	.	8ee\J	.	.	.	.	.
4D/	.	4D/	.	.	.	.	4D/	.	.	.	.	.	4.ff\	.	.	.	.	.
4r	.	4r	.	.	.	.	8d\L	.	.	.	.	.	.	.	.	.	.	.
.	.	.	.	.	.	.	8c\J	.	.	.	.	.	8ee\	.	.	.	.	.
2G#X\	5	2G#X\	.	.	.	.	4.B\	.	.	.	.	.	4.dd\	.	.	.	.	.
.	.	.	.	.	.	.	8c\L	.	.	.	.	.	8ee\L	.	.	.	.	.
4r	.	4r	.	.	.	.	8A\	.	.	.	.	.	8cc\	.	.	.	.	.
.	.	.	.	.	.	.	8G#X\J	.	.	.	.	.	8b\J	.	.	.	.	.
=62	=62	=62	=62	=62	=62-	=62	=62	=62	=62	=62	=62	=62	=62	=62	=62	=62	=62	=62
!	!	!	!LO:N:vis=2	!	!LO:N:vis=2	!	!	!	!	!	!	!	!	!	!	!	!	!
4A\	-	4A\	2.r	.	2.r	.	4A\	.	00.r	.	00.r	.	2cc\	.	.	.	.	.
2D#X/	7 5	2D#X/	.	.	.	.	4D/	.	.	.	.	.	.	.	.	.	.	.
.	.	.	.	.	.	.	4D#X/	-mu-	.	.	.	.	4cc\	-mu-	.	.	.	.
2E\	#	2E\	8g#X/	.	8b\	.	2E\	-lis	.	.	.	.	2b\	-lis	.	.	.	.
.	.	.	4cc\	.	4ee\	.	.	.	.	.	.	.	.	.	.	.	.	.
.	.	.	4b/	.	4dd\	.	.	.	.	.	.	.	.	.	.	.	.	.
4r	.	4r	.	.	.	.	4r	.	.	.	.	.	4r	.	.	.	.	.
.	.	.	8a/	.	8cc\	.	.	.	.	.	.	.	.	.	.	.	.	.
=63	=63	=63	=63	=63	=63	=63	=63	=63	=63	=63	=63	=63	=63	=63	=63	=63	=63	=63
!	!	!	!	!	!	!	!	!	!	!	!	!	!LO:TX:b:t=21:color=grey	!	!	!	!	!
4A\	7 #	4A\	4gn/	.	4cc#X\	.	00.r	.	.	.	.	.	00.r	.	.	.	.	.
4D/	.	4D/	4fn/	.	4dd\	.	.	.	.	.	.	.	.	.	.	.	.	.
4r	.	4r	4r	.	4r	.	.	.	.	.	.	.	.	.	.	.	.	.
!LO:N:vis=2	!	!LO:N:vis=2	!LO:LB:g=original	!	!	!	!	!	!	!	!	!	!	!	!	!	!	!
2.r	.	2.r	8f#X/	.	8a/	.	.	.	.	.	.	.	.	.	.	.	.	.
.	.	.	4b/	.	4dd\	.	.	.	.	.	.	.	.	.	.	.	.	.
.	.	.	4a/	.	4ccn\	.	.	.	.	.	.	.	.	.	.	.	.	.
.	.	.	8g/	.	8b\	.	.	.	.	.	.	.	.	.	.	.	.	.
=64	=64	=64	=64	=64	=64	=64	=64	=64	=64	=64	=64	=64	=64	=64	=64	=64	=64	=64
4B\	7 #	4B\	4a/	.	4dd#X\	.	.	.	.	.	.	.	.	.	00.r	.	00.r	.
4E\	.	4E\	4g/	.	4ee\	.	.	.	.	.	.	.	.	.	.	.	.	.
4r	.	4r	4r	.	4r	.	.	.	.	.	.	.	.	.	.	.	.	.
!LO:N:vis=2	!	!LO:N:vis=2	!	!	!LO:N:vis=2	!	!	!	!	!	!	!	!	!	!	!	!	!
2.r	.	2.r	4.cc\	.	2.r	.	.	.	.	.	.	.	.	.	.	.	.	.
.	.	.	8b/L	.	.	.	.	.	.	.	.	.	.	.	.	.	.	.
.	.	.	8a/	.	.	.	.	.	.	.	.	.	.	.	.	.	.	.
.	.	.	8g#X/J	.	.	.	.	.	.	.	.	.	.	.	.	.	.	.
=65-	=65	=65	=65-	=65	=65	=65	=65	=65	=65	=65	=65	=65	=65	=65	=65	=65	=65	=65
!LO:TX:a:t=1	!	!LO:TX:a:t=1	!	!	!	!	!	!	!	!	!	!	!	!	!	!	!	!
1.r	.	1.r	2.a/	.	4.ffn\	.	.	.	.	.	.	.	.	.	.	.	.	.
.	.	.	.	.	8ee\L	.	.	.	.	.	.	.	.	.	.	.	.	.
.	.	.	.	.	8dd\	.	.	.	.	.	.	.	.	.	.	.	.	.
.	.	.	.	.	8cc#X\J	.	.	.	.	.	.	.	.	.	.	.	.	.
.	.	.	8r	.	4.dd\	.	.	.	.	.	.	.	.	.	.	.	.	.
.	.	.	8f#X/L	.	.	.	.	.	.	.	.	.	.	.	.	.	.	.
.	.	.	8b/	.	.	.	.	.	.	.	.	.	.	.	.	.	.	.
.	.	.	8a/	.	8ccn\L	.	.	.	.	.	.	.	.	.	.	.	.	.
.	.	.	8g/	.	8b\	.	.	.	.	.	.	.	.	.	.	.	.	.
.	.	.	8f#X/J	.	8a\J	.	.	.	.	.	.	.	.	.	.	.	.	.
=66	=66	=66	=66	=66	=66	=66	=66	=66	=66	=66	=66	=66	=66	=66	=66	=66	=66	=66
!LO:TX:t=P:problem=mixed beam	!	!LO:TX:t=P:problem=mixed beam	!	!	!	!	!	!	!LO:N:vis=2	!	!	!	!	!	!	!	!	!
8G\L	3	8G\L	8g/L	.	8b\L	.	.	.	2.r	.	0.r	.	.	.	.	.	.	.
8C/J	3	8C/J	8a/J	.	8cc\J	.	.	.	.	.	.	.	.	.	.	.	.	.
4D/	4	4D\	4.f#X/	.	4.a/	.	.	.	.	.	.	.	.	.	.	.	.	.
4DD/	#	4DD/	.	.	.	.	.	.	.	.	.	.	.	.	.	.	.	.
.	.	.	8g/	.	8g/	.	.	.	.	.	.	.	.	.	.	.	.	.
!LO:TX:b:i:t=Tenor	!	!	!	!	!	!	!	!	!LO:TX:b:t=solo	!	!	!	!	!	!	!	!	!
2GG/	.	2GG/	2g/	.	2g/	.	.	.	4d\	Quid	.	.	.	.	.	.	.	.
.	.	.	.	.	.	.	.	.	4B\	ver-	.	.	.	.	.	.	.	.
4r	.	4r	4r	.	4r	.	.	.	4G/	-bum	.	.	.	.	.	.	.	.
*	*	*custos:D	*	*	*	*	*	*	*	*	*	*	*	*	*	*	*	*
!	!	!LO:LB:g=orginal	!	!	!	!	!	!	!	!	!	!	!	!	!	!	!	!
=67	=67	=67	=67	=67	=67	=67	=67	=67	=67	=67	=67	=67	=67	=67	=67	=67	=67	=67
!	!	!	!	!	!LO:TX:a:t=3.	!	!	!	!	!	!	!	!	!	!	!	!	!
4D/	#	4D/	0.r	.	0.r	.	00.r	.	4F#X/	de	.	.	00.r	.	.	.	.	.
4BB/	6	4BB/	.	.	.	.	.	.	4G/	me	.	.	.	.	.	.	.	.
4r	.	4r	.	.	.	.	.	.	4r	.	.	.	.	.	.	.	.	.
4r	.	4r	.	.	.	.	.	.	4.c\	lo-	.	.	.	.	.	.	.	.
8r	.	8r	.	.	.	.	.	.	.	.	.	.	.	.	.	.	.	.
16E\LL	6	16E\LL	.	.	.	.	.	.	8c\	-que-	.	.	.	.	.	.	.	.
16F#X\JJ	.	16F#X\JJ	.	.	.	.	.	.	.	.	.	.	.	.	.	.	.	.
!LO:TX:t=P:problem=mixed beam	!	!LO:TX:t=P:problem=mixed beam	!	!	!	!	!	!	!	!	!	!	!	!	!	!	!	!
8G\L	3	8G\L	.	.	.	.	.	.	4B\	-ris	.	.	.	.	.	.	.	.
8GG/J	.	8GG/J	.	.	.	.	.	.	.	.	.	.	.	.	.	.	.	.
=68	=68	=68	=68	=68	=68	=68	=68	=68	=68	=68	=68	=68	=68	=68	=68	=68	=68	=68
!LO:TX:b:i:t=Alto	!	!	!	!	!	!	!	!	!	!	!	!	!	!	!	!	!	!
2G\	.	2G\	.	.	.	.	.	.	1.r	.	4g\	Quod	.	.	00.r	.	00.r	.
.	.	.	.	.	.	.	.	.	.	.	4d\	cau-	.	.	.	.	.	.
4BB/	n5	4BB/	.	.	.	.	.	.	.	.	4f\	-sa	.	.	.	.	.	.
2C/	5 4	2C/	.	.	.	.	.	.	.	.	4f\	me	.	.	.	.	.	.
.	.	.	.	.	.	.	.	.	.	.	4e\	.	.	.	.	.	.	.
4C#X/	6	4C#X/	.	.	.	.	.	.	.	.	(8a\L	i-	.	.	.	.	.	.
.	.	.	.	.	.	.	.	.	.	.	8g\J)	.	.	.	.	.	.	.
=69	=69	=69	=69	=69	=69	=69	=69	=69	=69	=69	=69	=69	=69	=69	=69	=69	=69	=69
!	!	!	!	!	!	!	!	!	!LO:N:vis=2	!	!	!	!	!	!	!	!	!
2D/	5 4	2D/	1.r	.	1.r	.	.	.	2.r	.	4.g\	-nas-	.	.	.	.	.	.
.	.	.	.	.	.	.	.	.	.	.	8f#X\	-ce-	.	.	.	.	.	.
8D/L	#_	8D/L	.	.	.	.	.	.	.	.	4f#\	-ris	.	.	.	.	.	.
8AA/J	X	8AA/J	.	.	.	.	.	.	.	.	.	.	.	.	.	.	.	.
4GG/	.	4GG/	.	.	.	.	.	.	4B\	Pro-	8g\L	Pro	.	.	.	.	.	.
.	.	.	.	.	.	.	.	.	.	.	8d\J	.	.	.	.	.	.	.
4r	.	4r	.	.	.	.	.	.	4c\	-ful-	4e\	ful-	.	.	.	.	.	.
4r	.	4r	.	.	.	.	.	.	4B\	-cro	4d\	-cro	.	.	.	.	.	.
!LO:LB:g=original	!	!	!	!	!	!	!	!	!	!	!	!	!	!	!	!	!	!
=70	=70	=70	=70	=70	=70	=70	=70	=70	=70	=70	=70	=70	=70	=70	=70	=70	=70	=70
!LO:N:vis=2	!	!LO:N:vis=2	!	!	!	!	!	!	!LO:N:vis=2	!	!LO:N:vis=2	!	!	!	!	!	!	!
2.r	.	2.r	8g/	.	8b\	.	.	.	2.r	.	2.r	.	.	.	.	.	.	.
.	.	.	4a/	.	4cc\	.	.	.	.	.	.	.	.	.	.	.	.	.
.	.	.	4b\	.	4dd\	.	.	.	.	.	.	.	.	.	.	.	.	.
.	.	.	8cc\	.	8ee\	.	.	.	.	.	.	.	.	.	.	.	.	.
!	!	!	!LO:N:vis=2	!	!LO:N:vis=2	!	!	!	!	!	!	!	!	!	!	!	!	!
4AA/	#	4AA/	2.r	.	2.r	.	.	.	4c#X\	pro	8a\L	pro	.	.	.	.	.	.
.	.	.	.	.	.	.	.	.	.	.	8e\J	.	.	.	.	.	.	.
4r	.	4r	.	.	.	.	.	.	4d\	ful-	4f#X\	fu-	.	.	.	.	.	.
4r	.	4r	.	.	.	.	.	.	4c#X\	-cro	4e\	-lcro	.	.	.	.	.	.
=71	=71	=71	=71	=71	=71-	=71	=71	=71	=71	=71	=71	=71	=71	=71	=71	=71	=71	=71
1.AA|>	.	1.AA	00.r	.	00.r	.	00.r	.	8f#X\	ful-	8a\	ful-	00.r	.	.	.	.	.
.	.	.	.	.	.	.	.	.	4e\	.	4g\	.	.	.	.	.	.	.
.	.	.	.	.	.	.	.	.	4d\	.	4f#X\	.	.	.	.	.	.	.
.	.	.	.	.	.	.	.	.	4c#X\	.	4e\	.	.	.	.	.	.	.
.	.	.	.	.	.	.	.	.	4f#X\	.	4a\	.	.	.	.	.	.	.
.	.	.	.	.	.	.	.	.	4e\	.	4g\	.	.	.	.	.	.	.
.	.	.	.	.	.	.	.	.	8d\	-cro	8f#X\	-cro	.	.	.	.	.	.
=72	=72	=72	=72	=72	=72	=72	=72	=72	=72	=72	=72	=72	=72	=72	=72	=72	=72	=72
2AA/	#	2AA/	.	.	.	.	.	.	8c#X\L	sit	8e\L	sit	.	.	00.r	.	00.r	.
.	.	.	.	.	.	.	.	.	8d\	.	8f#X\	.	.	.	.	.	.	.
.	.	.	.	.	.	.	.	.	8e\	.	8g\	.	.	.	.	.	.	.
.	.	.	.	.	.	.	.	.	8c#X\J	.	8e\J	.	.	.	.	.	.	.
4r	.	4r	.	.	.	.	.	.	(8d\L	prae-	8f#X\L	prae-	.	.	.	.	.	.
.	.	.	.	.	.	.	.	.	8e\J)	.	8g\J	.	.	.	.	.	.	.
*	*	*	*	*	*	*	*	*	*custos:c	*	*custos:e	*	*	*	*	*	*	*
!	!	!	!	!	!	!	!	!	!LO:LB:g=original	!	!LO:LB:g=original	!	!	!	!	!	!	!
4A\	4	4A\	.	.	.	.	.	.	4.c#X\	-se-	4.e\	-se-	.	.	.	.	.	.
4AA/	#	4AA/	.	.	.	.	.	.	.	.	.	.	.	.	.	.	.	.
.	.	.	.	.	.	.	.	.	8d\	-pi-	8d\	-pi-	.	.	.	.	.	.
4D/	#	4D/	.	.	.	.	.	.	4d\	-um	4d\	-um	.	.	.	.	.	.
=73	=73	=73	=73	=73	=73	=73	=73	=73	=73	=73	=73	=73	=73	=73	=73	=73	=73	=73
!	!	!	!	!	!	!	!	!	!LO:N:vis=2	!	!	!	!	!	!	!	!	!
4d\	#	4d\	.	.	.	.	.	.	2.r	.	4d\	Pro	.	.	.	.	.	.
4c\	3	4c\	.	.	.	.	.	.	.	.	4e\	cae-	.	.	.	.	.	.
4A\	6\	4A\	.	.	.	.	.	.	.	.	4f#X\	-lo	.	.	.	.	.	.
4G\	3	4G\	.	.	.	.	.	.	4B\	Pro	[2.g\	sit	.	.	.	.	.	.
4A\	3	4A\	.	.	.	.	.	.	4cn\	cae-	.	.	.	.	.	.	.	.
4B\	3	4B\	.	.	.	.	.	.	4d\	-lo	.	.	.	.	.	.	.	.
=74	=74	=74	=74	=74	=74	=74	=74	=74	=74	=74	=74	=74	=74	=74	=74	=74	=74	=74
4c\	.	4c\	.	.	.	.	.	.	8e\L	sit	2g\]	.	.	.	.	.	.	.
.	.	.	.	.	.	.	.	.	8d\	.	.	.	.	.	.	.	.	.
4r	.	4r	.	.	.	.	.	.	8e\	.	.	.	.	.	.	.	.	.
.	.	.	.	.	.	.	.	.	8d\J	.	.	.	.	.	.	.	.	.
4C/	6 5	4C/	.	.	.	.	.	.	(8c\L	tu-	8e\L	tu-	.	.	.	.	.	.
.	.	.	.	.	.	.	.	.	8B\J)	.	16a\L	.	.	.	.	.	.	.
.	.	.	.	.	.	.	.	.	.	.	16g\JJ	.	.	.	.	.	.	.
2D\	4	2D/	.	.	.	.	.	.	4.A/	-gu-	4.f#X\	-gu-	.	.	.	.	.	.
.	#	.	.	.	.	.	.	.	8G/	-ri-	8g\	-ri-	.	.	.	.	.	.
4GG/	.	4GG/	.	.	.	.	.	.	4G/	-um	4g\	-um	.	.	.	.	.	.
=75	=75	=75	=75	=75	=75	=75	=75	=75	=75	=75	=75	=75	=75	=75	=75	=75	=75	=75
2GG/	.	2GG/	8b/	.	8dd\	.	00.r	.	00.r	.	00.r	.	00.r	.	.	.	.	.
.	.	.	4g/	.	4b\	.	.	.	.	.	.	.	.	.	.	.	.	.
.	.	.	4cc\	.	4ee\	.	.	.	.	.	.	.	.	.	.	.	.	.
4r	.	4r	.	.	.	.	.	.	.	.	.	.	.	.	.	.	.	.
.	.	.	8b\	.	8dd\	.	.	.	.	.	.	.	.	.	.	.	.	.
4FF#X/	5	4FF#X/	4a/	.	4cc\	.	.	.	.	.	.	.	.	.	.	.	.	.
4GG/	.	4GG/	4g/	.	4b\	.	.	.	.	.	.	.	.	.	.	.	.	.
4r	.	4r	4r	.	4r	.	.	.	.	.	.	.	.	.	.	.	.	.
=76	=76	=76	=76	=76	=76	=76	=76	=76	=76	=76	=76	=76	=76	=76	=76	=76	=76	=76
!	!	!	!	!LO:DY:a	!	!	!	!	!	!	!	!	!	!	!	!	!	!
2G\	.	2G\	8B/	p	8d/	.	.	.	.	.	.	.	.	.	0.r	.	0.r	.
.	.	.	4G/	.	4B/	.	.	.	.	.	.	.	.	.	.	.	.	.
.	.	.	4c/	.	4e/	.	.	.	.	.	.	.	.	.	.	.	.	.
4r	.	4r	.	.	.	.	.	.	.	.	.	.	.	.	.	.	.	.
.	.	.	8B/	.	8d/	.	.	.	.	.	.	.	.	.	.	.	.	.
4F#X\	5	4F#X\	4A/	.	4c/	.	.	.	.	.	.	.	.	.	.	.	.	.
4G\	.	4G\	4G/	.	4B/	.	.	.	.	.	.	.	.	.	.	.	.	.
4r	.	4r	4r	.	4r	.	.	.	.	.	.	.	.	.	.	.	.	.
=77	=77	=77	=77	=77	=77	=77	=77	=77	=77	=77	=77	=77	=77	=77	=77	=77	=77	=77
!	!	!	!	!LO:DY:b	!	!	!	!	!	!	!	!	!	!	!	!	!	!
2GG/	.	2GG/	8g/	f	8b\	.	.	.	.	.	.	.	.	.	.	.	.	.
.	.	.	4a/	.	4cc\	.	.	.	.	.	.	.	.	.	.	.	.	.
.	.	.	4b\	.	4dd\	.	.	.	.	.	.	.	.	.	.	.	.	.
4r	.	4r	.	.	.	.	.	.	.	.	.	.	.	.	.	.	.	.
.	.	.	8cc\	.	8ee\	.	.	.	.	.	.	.	.	.	.	.	.	.
4G\	n7	4G\	4dd\	.	4ff\	.	.	.	.	.	.	.	.	.	.	.	.	.
4C/	.	4C/	4cc\	.	4ee\	.	.	.	.	.	.	.	.	.	.	.	.	.
4r	.	4r	4r	.	4r	.	.	.	.	.	.	.	.	.	.	.	.	.
*	*	*	*custos:cc	*	*	*	*	*	*	*	*	*	*	*	*custos:cc	*	*custos:ee	*
!	!	!LO:LB:g=original	!LO:LB:g=original	!	!	!	!	!	!	!	!	!	!	!	!LO:LB:g=original	!	!LO:LB:g=original	!
=78	=78	=78	=78	=78	=78	=78	=78	=78	=78	=78	=78	=78	=78	=78	=78	=78	=78	=78
2C/	.	2C/	8cc\L	.	8ee\L	.	.	.	.	.	.	.	.	.	8cc\L	.	8ee\L	.
.	.	.	8dd\	.	8ff\	.	.	.	.	.	.	.	.	.	8dd\	.	8ff\	.
.	.	.	8ee\	.	8gg\	.	.	.	.	.	.	.	.	.	8ee\	.	8gg\	.
.	.	.	8cc\	.	8ee\	.	.	.	.	.	.	.	.	.	8cc\	.	8ee\	.
4r	.	4r	8ff\	.	8aa\	.	.	.	.	.	.	.	.	.	8ff\	.	8aa\	.
.	.	.	8ee\J	.	8gg\J	.	.	.	.	.	.	.	.	.	8ee\J	.	8gg\J	.
!LO:N:vis=2	!	!LO:N:vis=2	!	!	!LO:LB:g=original	!	!	!	!	!	!	!	!	!	!	!	!	!
2.r	.	2.r	8ff\	.	8aa\	.	.	.	.	.	.	.	.	.	8ff\	.	8aa\	.
.	.	.	4ee\	.	4gg\	.	.	.	.	.	.	.	.	.	4ee\	.	4gg\	.
.	.	.	4dd\	.	4ff\	.	.	.	.	.	.	.	.	.	4dd\	.	4ff\	.
.	.	.	8cc\	.	8ee\	.	.	.	.	.	.	.	.	.	8cc\	.	8ee\	.
=79	=79	=79	=79	=79	=79	=79	=79	=79	=79	=79	=79	=79	=79	=79	=79	=79	=79	=79
*^	*	*	*	*	*	*	*	*	*	*	*	*	*	*	*	*	*	*
*	*^	*	*	*	*	*	*	*	*	*	*	*	*	*	*	*	*	*	*
*clefG2	*clefG2	*clefF4	*	*	*	*	*	*	*	*	*	*	*	*	*	*	*	*	*	*
!	!	!	!	!	!LO:TX:a:t=2	!	!LO:TX:a:t=2	!	!	!	!	!	!	!	!	!	!LO:TX:a:t=1	!	!LO:TX:a:t=1	!
8ee/L	8cc\L	[<1.CC	.	[>1.CC	0.r	.	0.r	.	00.r	.	00.r	.	00.r	.	00.r	.	1.r	.	1.r	.
8ff/	8dd\	.	.	.	.	.	.	.	.	.	.	.	.	.	.	.	.	.	.	.
8gg/	8ee\	.	.	.	.	.	.	.	.	.	.	.	.	.	.	.	.	.	.	.
8ee/	8cc\	.	.	.	.	.	.	.	.	.	.	.	.	.	.	.	.	.	.	.
8aa/	8ff\	.	.	.	.	.	.	.	.	.	.	.	.	.	.	.	.	.	.	.
8gg/J	8ee\J	.	.	.	.	.	.	.	.	.	.	.	.	.	.	.	.	.	.	.
8aa/	8ff\	.	.	.	.	.	.	.	.	.	.	.	.	.	.	.	.	.	.	.
4gg/	4ee\	.	.	.	.	.	.	.	.	.	.	.	.	.	.	.	.	.	.	.
4ff/	4dd\	.	.	.	.	.	.	.	.	.	.	.	.	.	.	.	.	.	.	.
8ee/	[8cc\	.	.	.	.	.	.	.	.	.	.	.	.	.	.	.	.	.	.	.
!LO:LB:g=original	!LO:LB:g=original	!LO:LB:g=original	!	!	!	!	!	!	!	!	!	!	!	!	!	!	!	!	!	!
=80	=80	=80	=80	=80	=80	=80	=80	=80	=80	=80	=80	=80	=80	=80	=80	=80	=80	=80	=80	=80
*clefG2	*clefG2	*clefF4	*	*	*	*	*	*	*	*	*	*	*	*	*	*	*	*	*	*
!LO:N:vis=2	!	!	!	!	!	!	!	!	!	!	!	!	!	!	!	!	!	!	!	!
2.r	2.rdd]	1.CC]	.	1.CC]	.	.	.	.	.	.	.	.	.	.	.	.	8ff\	.	8aa\	.
.	.	.	.	.	.	.	.	.	.	.	.	.	.	.	.	.	4ee\	.	4gg\	.
.	.	.	.	.	.	.	.	.	.	.	.	.	.	.	.	.	4dd\	.	4ff\	.
.	.	.	.	.	.	.	.	.	.	.	.	.	.	.	.	.	8cc\	.	8ee\	.
!	!	!	!	!	!	!	!	!	!	!	!	!	!	!	!	!	!LO:N:vis=2	!	!LO:N:vis=2	!
8aa/	8ff\	.	.	.	.	.	.	.	.	.	.	.	.	.	.	.	2.r	.	2.r	.
4gg/	4ee\	.	.	.	.	.	.	.	.	.	.	.	.	.	.	.	.	.	.	.
4ff/	4dd\	.	.	.	.	.	.	.	.	.	.	.	.	.	.	.	.	.	.	.
8ee/	8cc\	.	.	.	.	.	.	.	.	.	.	.	.	.	.	.	.	.	.	.
*v	*v	*v	*	*	*	*	*	*	*	*	*	*	*	*	*	*	*	*	*	*
=81	=81	=81	=81	=81	=81	=81	=81	=81	=81	=81	=81	=81	=81	=81	=81	=81	=81	=81
*clefF4	*	*	*	*	*	*	*	*	*	*	*	*	*	*	*	*	*	*
2C/	.	2C/	8ee\	.	8gg\	.	.	.	.	.	.	.	.	.	8ee\	.	8gg\	.
.	.	.	4cc\	.	4ee\	.	.	.	.	.	.	.	.	.	4cc\	.	4ee\	.
.	.	.	4ff\	.	4aa\	.	.	.	.	.	.	.	.	.	4ff\	.	4aa\	.
4r	.	4r	.	.	.	.	.	.	.	.	.	.	.	.	.	.	.	.
.	.	.	8ee\	.	8gg\	.	.	.	.	.	.	.	.	.	8ee\	.	8gg\	.
4BB/	5	4BB/	4dd\	.	4ff\	.	.	.	.	.	.	.	.	.	4dd\	.	4ff\	.
4C/	.	4C/	4cc\	.	4ee\	.	.	.	.	.	.	.	.	.	4cc\	.	4ee\	.
4r	.	4r	4r	.	4r	.	.	.	.	.	.	.	.	.	4r	.	4r	.
=82	=82	=82	=82	=82	=82	=82	=82	=82	=82	=82	=82	=82	=82	=82	=82	=82	=82	=82
*^	*	*	*	*	*	*	*	*	*	*	*	*	*	*	*	*	*	*
*	*^	*	*	*	*	*	*	*	*	*	*	*	*	*	*	*	*	*	*
*clefG2	*clefG2	*clefF4	*	*	*	*	*	*	*	*	*	*	*	*	*	*	*	*	*	*
!	!	!	!	!	!LO:TX:a:t=1	!	!LO:TX:a:t=1	!	!	!	!	!	!	!	!	!	!LO:TX:a:t=1	!	!LO:TX:a:t=1	!
8gg/	8ee\	1.CC	.	1.CC	1.r	.	1.r	.	.	.	.	.	.	.	.	.	1.r	.	1.r	.
4ee/	4cc\	.	.	.	.	.	.	.	.	.	.	.	.	.	.	.	.	.	.	.
4aa/	4ff\	.	.	.	.	.	.	.	.	.	.	.	.	.	.	.	.	.	.	.
8gg/	8ee\	.	.	.	.	.	.	.	.	.	.	.	.	.	.	.	.	.	.	.
4ff/	4dd\	.	.	.	.	.	.	.	.	.	.	.	.	.	.	.	.	.	.	.
4ee/	4cc\	.	.	.	.	.	.	.	.	.	.	.	.	.	.	.	.	.	.	.
4r	4ryy	.	.	.	.	.	.	.	.	.	.	.	.	.	.	.	.	.	.	.
*v	*v	*v	*	*	*	*	*	*	*	*	*	*	*	*	*	*	*	*	*	*
=83	=83	=83	=83	=83	=83	=83	=83	=83	=83	=83	=83	=83	=83	=83	=83	=83	=83	=83
*clefF4	*	*	*	*	*	*	*	*	*	*	*	*	*	*	*	*	*	*
!LO:TX:b:i:t=Tutti	!	!	!	!	!	!	!	!	!	!	!	!	!	!	!	!	!	!
8C|\L	.	8C/L	8c/L	.	8cc\L	.	1.r	.	1.r	.	1.r	.	1.r	.	8cc\L	.	8cc\L	.
8D|\J	.	8D/J	8d/J	.	8dd\J	.	.	.	.	.	.	.	.	.	8dd\J	.	8dd\J	.
4E|\	.	4E\	4e/	.	4ee\	.	.	.	.	.	.	.	.	.	4ee\	.	4ee\	.
4F|\	.	4F\	4f/	.	4ff\	.	.	.	.	.	.	.	.	.	4ff\	.	4ff\	.
4.G|\	.	4.G\	4.g/	.	4.gg\	.	.	.	.	.	.	.	.	.	4.gg\	.	4.gg\	.
8GG|>/	.	8GG/	8G/	.	8g/	.	.	.	.	.	.	.	.	.	8g/	.	8g/	.
4C|>/	.	4C/	4c/	.	4cc\	.	.	.	.	.	.	.	.	.	4cc\	.	4cc\	.
=84	=84	=84	=84	=84	=84	=84	=84	=84	=84	=84	=84	=84	=84	=84	=84	=84	=84	=84
!	!	!	!	!	!	!	!LO:TX:a:i:t=Tutti	!	!LO:TX:a:i:t=Tutti	!	!	!	!LO:TX:b:i:t=Tutti	!	!	!	!	!
4C|>/	.	4C/	4c/	.	4cc\	.	4C/	A-	4c\	A-	4c/	A-	4cc\	A-	4cc\	.	4cc\	.
4E|\	.	4E\	4e/	.	4ee\	.	4E\	-mo-	4e\	-mo-	4e\	-mo-	4ee\	-mo-	4ee\	.	4ee\	.
4F|\	.	4F\	4f/	.	4ff\	.	4F\	-ris	4f\	-ris	4f\	-ris	4ff\	-ris	4ff\	.	4ff\	.
4D|>/	.	4D/	4d/	.	4dd\	.	4D/	sce-	4d\	sce-	4d\	sce-	4dd\	sce-	4dd\	.	4dd\	.
2G|\	.	2G\	2g/	.	2gg\	.	2G\	-na	2g\	-na	2g\	-na	2gg\	-na	2gg\	.	2gg\	.
=85	=85	=85	=85	=85	=85	=85	=85	=85	=85	=85	=85	=85	=85	=85	=85	=85	=85	=85
8E|\L	.	8E\L	8e/L	.	8ee\L	.	8E\	pan-	8e\	pan-	8e\	pan-	8ee\	pan-	8ee\L	.	8ee\L	.
8D|\J	.	8D\J	8d/J	.	8dd\J	.	8D/	-di-	8d\	-di-	8d\	-di-	8dd\	-di-	8dd\J	.	8dd\J	.
2C|>/	.	2C/	2c/	.	2cc\	.	2C/	-tur	2c\	-tur	2c/	-tur	2cc\	-tur,	2cc\	.	2cc\	.
4C|>/	.	4C/	4c/	.	4cc\	.	4C/	Dec-	4c\	De-	4c/	De-	4cc\	Dec-	4cc\	.	4cc\	.
4E|\	.	4E\	4e/	.	4ee\	.	4E\	-re-	4e\	-cre-	4e\	-cre-	4ee\	-re-	4ee\	.	4ee\	.
4F|\	.	4F\	4f/	.	4ff\	.	4F\	-tum	4f\	-tum	4f\	-tum	4ff\	-tum	4ff\	.	4ff\	.
=86	=86	=86	=86	=86	=86	=86	=86	=86	=86	=86	=86	=86	=86	=86	=86	=86	=86	=86
4D|\	.	4D\	4d/	.	4dd\	.	4D/	dum	4d\	dum	4d\	dum	4dd\	dum	4dd\	.	4dd\	.
2G|\	.	2G\	2g/	.	2gg\	.	2G\	è	2g\	ex	2g\	ex	2gg\	ex	2gg\	.	2gg\	.
*	*	*	*	*	*	*	*	*	*custos:e	*	*	*	*	*	*	*	*	*
!	!	!	!	!	!	!	!	!	!LO:LB:g=original	!	!	!	!	!	!	!	!	!
8E|\L	.	8E\L	8e/L	.	8ee\L	.	8E\	x e-	8e\	e-	8e\	e-	8ee\	e-	8ee\L	.	8ee\L	.
8D|\J	.	8D\J	8d/J	.	8dd\J	.	8D/	-qui-	8d\	-qui-	8d\	-qui-	8dd\	-qui-	8dd\J	.	8dd\J	.
2C|>/	.	2C/	2c/	.	2cc\	.	2C/	-tur	2c\	-tur	2c/	-tur	2cc\	-tur	2cc\	.	2cc\	.
!	!	!	!	!	!	!	!	!	!	!	!LO:LB:g=original	!	!	!	!	!	!	!
=87	=87	=87	=87	=87	=87	=87	=87	=87	=87	=87	=87	=87	=87	=87	=87	=87	=87	=87
!LO:TX:a:t=3	!	!LO:TX:a:t=3	!	!	!	!	!	!	!	!	!	!	!	!	!	!	!	!
0.r	.	0.r	8ee\L	.	8gg\L	.	4C/	De-	4c\	De-	4c/	De-	4cc\	De-	8ee\L	.	8gg\L	.
.	.	.	8ff\	.	8aa\	.	.	.	.	.	.	.	.	.	8ff\	.	8aa\	.
.	.	.	8ff\	.	8aa\	.	4C/	-us	4c\	-us	4c/	-us	4cc\	-us:	8ff\	.	8aa\	.
.	.	.	8ee\	.	8gg\	.	.	.	.	.	.	.	.	.	8ee\	.	8gg\	.
.	.	.	8ee\	.	8gg\	.	4C/	Ca-	4c\	Ca-	4c/	Ca-	4cc\	ca-	8ee\	.	8gg\	.
.	.	.	8dd\J	.	8ff\J	.	.	.	.	.	.	.	.	.	8dd\J	.	8ff\J	.
*	*	*	*	*	*	*	*	*	*	*	*	*	*custos:cc	*	*custos:ee	*	*custos:gg	*
!	!	!	!	!	!	!	!LO:LB:g=original	!	!	!	!	!	!LO:LB:g=original	!	!LO:LB:g=original	!	!LO:LB:g=original	!
.	.	.	8ee\L	.	8gg\L	.	4C/	-the-	4c\	-the-	4c/	-the-	4cc\	-the-	8ee\L	.	8gg\L	.
.	.	.	8dd\	.	8ff\	.	.	.	.	.	.	.	.	.	8dd\	.	8ff\	.
.	.	.	8dd\	.	8ff\	.	2C/	-dra	2c\	-dra	2c/	-dra	2cc\	-dra	8dd\	.	8ff\	.
.	.	.	8cc\	.	8ee\	.	.	.	.	.	.	.	.	.	8cc\	.	8ee\	.
.	.	.	8cc\	.	8ee\	.	.	.	.	.	.	.	.	.	8cc\	.	8ee\	.
.	.	.	8dd\J	.	8ff\J	.	.	.	.	.	.	.	.	.	8dd\J	.	8ff\J	.
*	*	*	*custos:e	*	*	*	*	*	*	*	*	*	*	*	*	*	*	*
!	!	!	!LO:LB:g=original	!	!	!	!	!	!	!	!	!	!	!	!	!	!	!
=88	=88	=88	=88	=88	=88	=88	=88	=88	=88	=88	=88	=88	=88	=88	=88	=88	=88	=88
.	.	.	8e/L	.	8g/L	.	4.C/	sta-	4.c\	Sta-	4.c/	sta-	4.cc\	sta-	8ee\L	p	8gg\L	.
.	.	.	8f/	.	8a/	.	.	.	.	.	.	.	.	.	8ff\	.	8aa\	.
.	.	.	8f/	.	8a/	.	.	.	.	.	.	.	.	.	8ff\	.	8aa\	.
.	.	.	8e/	.	8g/	.	8C/	-bu-	8c\	-bu-	8c/	-bu-	8cc\	-bu-	8ee\	.	8gg\	.
.	.	.	8e/	.	8g/	.	4C/	-lum	4c\	-lum	4c/	-lum	4cc\	-lum	8ee\	.	8gg\	.
.	.	.	8d/J	.	8f/J	.	.	.	.	.	.	.	.	.	8dd\J	.	8ff\J	.
.	.	.	8e/L	.	8g/L	.	4C/	De	4c\	De	4c/	De	4cc\	De	8ee\L	.	8gg\L	.
.	.	.	8d/	.	8f/	.	.	.	.	.	.	.	.	.	8dd\	.	8ff\	.
.	.	.	8d/	.	8f/	.	4C/	qua	4c\	qua	4c/	qua	4cc\	qua	8dd\	.	8ff\	.
.	.	.	8c/	.	8e/	.	.	.	.	.	.	.	.	.	8cc\	.	8ee\	.
.	.	.	8c/	.	8e/	.	4C/	ver-	4c\	ver-	4c/	ver-	4cc\	ver-	8cc\	.	8ee\	.
.	.	.	8d/J	.	8f/J	.	.	.	.	.	.	.	.	.	8dd\J	.	8ff\J	.
=89	=89	=89	=89	=89	=89	=89	=89	=89	=89	=89	=89	=89	=89	=89	=89	=89	=89	=89
1.r	.	1.r	8ee\L	.	8gg\L	.	4C/	-bum	4c\	-bum	4c/	-bum	4cc\	-bum	8ee\L	f	8gg\L	.
.	.	.	8ff\	.	8aa\	.	.	.	.	.	.	.	.	.	8ff\	.	8aa\	.
.	.	.	8ff\	.	8aa\	.	2C/	ad	2c\	ad	2c/	ad	2cc\	ad	8ff\	.	8aa\	.
.	.	.	8ee\	.	8gg\	.	.	.	.	.	.	.	.	.	8ee\	.	8gg\	.
.	.	.	8ee\	.	8gg\	.	.	.	.	.	.	.	.	.	8ee\	.	8gg\	.
.	.	.	8dd\J	.	8ff\J	.	.	.	.	.	.	.	.	.	8dd\J	.	8ff\J	.
.	.	.	8ee\L	.	8gg\L	.	4.C/	po-	4.c\	po-	4.c/	po-	4.cc\	po-	8ee\L	.	8gg\L	.
.	.	.	8dd\	.	8ff\	.	.	.	.	.	.	.	.	.	8dd\	.	8ff\	.
.	.	.	8dd\	.	8ff\	.	.	.	.	.	.	.	.	.	8dd\	.	8ff\	.
.	.	.	8cc\	.	8ee\	.	8C/	-pu-	8c\	-pu-	8c/	-pu-	8cc\	-pu-	8cc\	.	8ee\	.
.	.	.	8cc\	.	8ee\	.	4C/	-lum	4c\	-lum	4c/	-lum	4cc\	-lum	8cc\	.	8ee\	.
.	.	.	8dd\J	.	8ff\J	.	.	.	.	.	.	.	.	.	8dd\J	.	8ff\J	.
*custos:C	*	*	*	*	*custos:gg	*	*	*	*	*	*	*	*	*	*	*	*	*
!LO:PB:g=origina;	!	!	!	!	!LO:LB:g=original	!	!	!	!	!	!	!	!	!	!	!	!	!
=90	=90	=90	=90	=90	=90	=90	=90	=90	=90	=90	=90	=90	=90	=90	=90	=90	=90	=90
!	!	!	!	!	!	!	!LO:TX:a:t=1	!	!LO:TX:a:t=1	!	!LO:TX:a:t=1	!	!LO:TX:a:t=1	!	!	!	!	!
2C/	.	2C/	8ee\	.	8gg\	.	1.r	.	1.r	.	1.r	.	1.r	.	8ee\	.	8gg\	.
.	.	.	4cc\	.	4ee\	.	.	.	.	.	.	.	.	.	4cc\	.	4ee\	.
.	.	.	4ff\	.	4aa\	.	.	.	.	.	.	.	.	.	4ff\	.	4aa\	.
4r	.	4r	.	.	.	.	.	.	.	.	.	.	.	.	.	.	.	.
.	.	.	8ee\	.	8gg\	.	.	.	.	.	.	.	.	.	8ee\	.	8gg\	.
4BB/	5	4BB/	4dd\	.	4ff\	.	.	.	.	.	.	.	.	.	4dd\	.	4ff\	.
!	!	!	!LO:TX:t=P:problem=mixed beam	!	!LO:TX:t=P:problem=mixed beam	!	!	!	!	!	!	!	!	!	!LO:TX:t=P:problem=mixed beam	!	!LO:TX:t=P:problem=mixed beam	!
4C/	.	4C/	8cc\L	.	8ee\L	.	.	.	.	.	.	.	.	.	8cc\L	.	8ee\L	.
.	.	.	8g/	.	8g/	.	.	.	.	.	.	.	.	.	8g/	.	8g/	.
4r	.	4r	8e/	.	8e/	.	.	.	.	.	.	.	.	.	8e/	.	8e/	.
.	.	.	8c/J	.	8c/J	.	.	.	.	.	.	.	.	.	8c/J	.	8c/J	.
!	!	!LO:LB:g=original	!	!	!	!	!	!	!	!	!	!	!	!	!	!	!	!
=91	=91	=91	=91	=91	=91	=91	=91	=91	=91	=91	=91	=91	=91	=91	=91	=91	=91	=91
4r	.	4r	4r	.	4r	.	4r	.	4r	.	4r	.	4r	.	4r	.	4r	.
4c|\	.	4c\	4cc\	.	4ccc\	.	4c\	Mu-	4c\	Mu-	4cc\	Mu-	4cc\	Mu-	4cc\	.	4ccc\	.
4G|\	.	4G\	4g/	.	4gg\	.	4G\	-sae	4G/	-sae	4g\	-sae	4g/	-sae	4g/	.	4gg\	.
8E|\L	.	8E\L	8e/L	.	8ee\L	.	8E\	pi-	8E/	pi-	8e\	pi-	8e/	pi-	8e/L	.	8ee\L	.
8C|\J	.	8C\J	8c/J	.	8cc\J	.	8C/	-ae	8C/	-ae	8c/	-ae	8c/	-ae	8c/	.	8cc\J	.
4r	.	4r	8e/L	.	8e/L	.	4r	.	4r	.	4r	.	4r	.	8e/	.	8e/L	.
.	.	.	8c/J	.	8c/J	.	.	.	.	.	.	.	.	.	8c/J	.	8c/J	.
4r	.	4r	4r	.	4r	.	4c\	Si-	4r	.	4r	.	4r	.	4r	.	4r	.
=92	=92	=92	=92	=92	=92	=92	=92	=92	=92	=92	=92	=92	=92	=92	=92	=92	=92	=92
!	!	!LO:TX:a:t=1	!LO:TX:a:t=1	!	!LO:TX:a:t=1	!	!	!	!LO:TX:a:t=1	!	!	!	!LO:TX:a:t=1	!	!LO:TX:a:t=1	!	!LO:TX:a:t=1	!
1.r	.	1.r	1.r	.	1.r	.	4.c\	-len-	1.r	.	1.r	.	1.r	.	1.r	.	1.r	.
.	.	.	.	.	.	.	8C/	-ti-	.	.	.	.	.	.	.	.	.	.
.	.	.	.	.	.	.	4C/	-um	.	.	.	.	.	.	.	.	.	.
.	.	.	.	.	.	.	2.r	.	.	.	.	.	.	.	.	.	.	.
==	==	==	==	==	==	==	==	==	==	==	==	==	==	==	==	==	==	==
*-	*-	*-	*-	*-	*-	*-	*-	*-	*-	*-	*-	*-	*-	*-	*-	*-	*-	*-
!!!system-decoration: [(g1)][(g2)][(g3)]s10
!!!RDF**kern: > = above
!!!RDF**kern: < = below
!!!RDF**kern: | = vertical stroke
!!!RDF**dynam: p = "piano"
!!!RDF**dynam: f = "forte"
!!!ENC: Andrzej Gręziak
!!!END: 2020-07-29
!!!ENC: Marta Lawrence
!!!END: 2022-03-09
